;FLAVOR:UltiGCode
;TIME:5582
;MATERIAL:8924
;MATERIAL2:0
;NOZZLE_DIAMETER:0.4
;Generated with Cura_SteamEngine 2.6.1

;LAYER_COUNT:50
;LAYER:0
M107
G0 F3000 X88.677 Y69.14 Z0.2
;TYPE:SKIRT
G1 F1500 X89.274 Y68.469 E0.05748
G1 X89.928 Y67.854 E0.11494
G1 X90.634 Y67.3 E0.17237
G1 X91.387 Y66.81 E0.22987
G1 X92.18 Y66.39 E0.2873
G1 X93.008 Y66.042 E0.34478
G1 X93.863 Y65.769 E0.40222
G1 X94.739 Y65.573 E0.45967
G1 X95.629 Y65.456 E0.51712
G1 X96.499 Y65.418 E0.57286
G1 X126.5 Y65.418 E2.49292
G1 X127.397 Y65.458 E2.55038
G1 X128.287 Y65.578 E2.60786
G1 X129.162 Y65.776 E2.66528
G1 X130.017 Y66.051 E2.72276
G1 X130.843 Y66.402 E2.7802
G1 X131.635 Y66.824 E2.83763
G1 X132.387 Y67.316 E2.89514
G1 X133.092 Y67.872 E2.95261
G1 X133.744 Y68.489 E3.01006
G1 X134.339 Y69.161 E3.0675
G1 X134.872 Y69.884 E3.12499
G1 X135.338 Y70.651 E3.18243
G1 X135.734 Y71.456 E3.23984
G1 X136.057 Y72.294 E3.29732
G1 X136.304 Y73.157 E3.35477
G1 X136.474 Y74.039 E3.41226
G1 X136.564 Y74.932 E3.4697
G1 X136.576 Y75.791 E3.52468
G1 X136.51 Y78.058 E3.66983
G1 X136.438 Y79.001 E3.73036
G1 X136.236 Y80.636 E3.83579
G1 X136.099 Y81.46 E3.88925
G1 X135.762 Y83.074 E3.99478
G1 X135.563 Y83.865 E4.04698
G1 X135.098 Y85.442 E4.1522
G1 X134.828 Y86.235 E4.20581
G1 X134.232 Y87.772 E4.31132
G1 X133.901 Y88.533 E4.36443
G1 X133.181 Y90.015 E4.46988
G1 X132.789 Y90.744 E4.52285
G1 X131.951 Y92.16 E4.62816
G1 X131.549 Y92.778 E4.67534
G1 X131.635 Y92.824 E4.68158
G1 X132.387 Y93.316 E4.7391
G1 X133.092 Y93.872 E4.79656
G1 X133.744 Y94.489 E4.85401
G1 X134.339 Y95.161 E4.91145
G1 X134.872 Y95.884 E4.96894
G1 X135.338 Y96.651 E5.02638
G1 X135.734 Y97.456 E5.0838
G1 X136.057 Y98.294 E5.14127
G1 X136.304 Y99.157 E5.19872
G1 X136.474 Y100.039 E5.25621
G1 X136.564 Y100.932 E5.31365
G1 X136.576 Y101.791 E5.36863
G1 X136.51 Y104.058 E5.51378
G1 X136.438 Y105.001 E5.57431
G1 X136.236 Y106.636 E5.67975
G1 X136.099 Y107.46 E5.73321
G1 X135.762 Y109.074 E5.83873
G1 X135.563 Y109.865 E5.89093
G1 X135.098 Y111.442 E5.99615
G1 X134.828 Y112.235 E6.04977
G1 X134.232 Y113.772 E6.15527
G1 X133.901 Y114.533 E6.20838
G1 X133.181 Y116.015 E6.31383
G1 X132.789 Y116.744 E6.36681
G1 X131.951 Y118.16 E6.47211
G1 X131.499 Y118.856 E6.52522
G1 X130.546 Y120.2 E6.63067
G1 X130.092 Y120.787 E6.67816
G1 X130.635 Y121.076 E6.71753
G1 X131.387 Y121.568 E6.77504
G1 X132.092 Y122.124 E6.83251
G1 X132.744 Y122.741 E6.88996
G1 X133.339 Y123.413 E6.9474
G1 X133.872 Y124.136 E7.00489
G1 X134.338 Y124.903 E7.06233
G1 X134.734 Y125.708 E7.11974
G1 X135.057 Y126.546 E7.17722
G1 X135.304 Y127.409 E7.23467
G1 X135.474 Y128.291 E7.29216
G1 X135.564 Y129.184 E7.3496
G1 X135.58 Y129.75 E7.38584
G1 X135.58 Y141.25 E8.12184
G1 X135.54 Y142.147 E8.1793
G1 X135.42 Y143.037 E8.23678
G1 X135.222 Y143.912 E8.29419
G1 X134.947 Y144.767 E8.35167
G1 X134.596 Y145.593 E8.40911
G1 X134.174 Y146.385 E8.46655
G1 X133.682 Y147.137 E8.52406
G1 X133.126 Y147.842 E8.58152
G1 X132.509 Y148.494 E8.63897
G1 X131.837 Y149.089 E8.69642
G1 X131.114 Y149.622 E8.7539
G1 X130.347 Y150.088 E8.81134
G1 X129.542 Y150.484 E8.86876
G1 X128.704 Y150.807 E8.92624
G1 X127.841 Y151.054 E8.98369
G1 X126.959 Y151.224 E9.04117
G1 X126.066 Y151.314 E9.09861
G1 X125.5 Y151.33 E9.13485
G1 X95.5 Y151.33 E11.05485
G1 X94.603 Y151.29 E11.11232
G1 X93.713 Y151.17 E11.16979
G1 X92.838 Y150.972 E11.22721
G1 X91.983 Y150.697 E11.28469
G1 X91.157 Y150.346 E11.34213
G1 X90.365 Y149.924 E11.39956
G1 X89.613 Y149.432 E11.45708
G1 X88.908 Y148.876 E11.51454
G1 X88.256 Y148.259 E11.57199
G1 X87.661 Y147.587 E11.62943
G1 X87.128 Y146.864 E11.68692
G1 X86.662 Y146.097 E11.74436
G1 X86.266 Y145.292 E11.80178
G1 X85.943 Y144.454 E11.85925
G1 X85.696 Y143.591 E11.9167
G1 X85.526 Y142.709 E11.97419
G1 X85.436 Y141.816 E12.03163
G1 X85.42 Y141.25 E12.06787
G1 X85.42 Y129.75 E12.80387
G1 X85.46 Y128.853 E12.86134
G1 X85.58 Y127.963 E12.91881
G1 X85.723 Y127.33 E12.96034
G1 X62.5 Y127.33 E14.44662
G1 X61.603 Y127.29 E14.50408
G1 X60.713 Y127.17 E14.56156
G1 X59.838 Y126.972 E14.61897
G1 X58.983 Y126.697 E14.67645
G1 X58.157 Y126.346 E14.73389
G1 X57.365 Y125.924 E14.79133
G1 X56.613 Y125.432 E14.84884
G1 X55.908 Y124.876 E14.9063
G1 X55.256 Y124.259 E14.96375
G1 X54.661 Y123.587 E15.0212
G1 X54.128 Y122.864 E15.07868
G1 X53.662 Y122.097 E15.13612
G1 X53.266 Y121.292 E15.19354
G1 X52.943 Y120.454 E15.25102
G1 X52.696 Y119.591 E15.30847
G1 X52.526 Y118.709 E15.36595
G1 X52.436 Y117.816 E15.42339
G1 X52.42 Y117.25 E15.45963
G1 X52.42 Y105.75 E16.19563
G1 X52.46 Y104.853 E16.2531
G1 X52.58 Y103.963 E16.31057
G1 X52.778 Y103.088 E16.36799
G1 X53.053 Y102.233 E16.42547
G1 X53.404 Y101.407 E16.48291
G1 X53.826 Y100.615 E16.54034
G1 X54.318 Y99.863 E16.59786
G1 X54.874 Y99.158 E16.65532
G1 X55.491 Y98.506 E16.71277
G1 X56.163 Y97.911 E16.77021
G1 X56.886 Y97.378 E16.8277
G1 X57.653 Y96.912 E16.88514
G1 X58.458 Y96.516 E16.94255
G1 X59.296 Y96.193 E17.00003
G1 X60.159 Y95.946 E17.05748
G1 X61.041 Y95.776 E17.11497
G1 X61.934 Y95.686 E17.17241
G1 X62.5 Y95.67 E17.20865
G1 X88.284 Y95.67 E18.85882
G1 X88.677 Y95.14 E18.90105
G1 X89.274 Y94.469 E18.95853
G1 X89.928 Y93.854 E19.01599
G1 X90.634 Y93.3 E19.07342
G1 X91.387 Y92.81 E19.13092
G1 X91.449 Y92.777 E19.13542
G1 X91.063 Y92.182 E19.18081
G1 X90.224 Y90.767 E19.28609
G1 X89.83 Y90.036 E19.33924
G1 X89.109 Y88.554 E19.44471
G1 X88.778 Y87.796 E19.49765
G1 X88.181 Y86.26 E19.60312
G1 X87.911 Y85.47 E19.65655
G1 X87.444 Y83.893 E19.76181
G1 X87.243 Y83.097 E19.81435
G1 X86.905 Y81.483 E19.91989
G1 X86.768 Y80.66 E19.97329
G1 X86.565 Y79.026 E20.07867
G1 X86.493 Y78.087 E20.13894
G1 X86.424 Y75.802 E20.28524
G1 X86.436 Y74.905 E20.34266
G1 X86.529 Y74.012 E20.40012
G1 X86.701 Y73.13 E20.45763
G1 X86.951 Y72.268 E20.51507
G1 X87.276 Y71.431 E20.57254
G1 X87.674 Y70.627 E20.62995
G1 X88.143 Y69.861 E20.68743
G1 X88.677 Y69.14 E20.74486
G0 F3000 X88.998 Y69.254
G1 F1500 X89.593 Y68.601 E20.8014
G1 X90.245 Y68.005 E20.85793
G1 X90.948 Y67.47 E20.91447
G1 X91.696 Y67.001 E20.97097
G1 X92.484 Y66.602 E21.0275
G1 X93.305 Y66.275 E21.08406
G1 X94.152 Y66.024 E21.1406
G1 X95.018 Y65.851 E21.19712
G1 X95.897 Y65.757 E21.25369
G1 X96.499 Y65.738 E21.29224
G1 X126.5 Y65.738 E23.2123
G1 X127.382 Y65.778 E23.26881
G1 X128.258 Y65.898 E23.3254
G1 X129.119 Y66.096 E23.38194
G1 X129.958 Y66.371 E23.43845
G1 X130.769 Y66.721 E23.49498
G1 X131.545 Y67.143 E23.55151
G1 X132.28 Y67.634 E23.60808
G1 X132.967 Y68.188 E23.66456
G1 X133.602 Y68.803 E23.72114
G1 X134.178 Y69.473 E23.77769
G1 X134.691 Y70.192 E23.83422
G1 X135.138 Y70.954 E23.89076
G1 X135.513 Y71.754 E23.9473
G1 X135.815 Y72.584 E24.00383
G1 X136.04 Y73.438 E24.06035
G1 X136.187 Y74.309 E24.11688
G1 X136.255 Y75.19 E24.17343
G1 X136.256 Y75.782 E24.21132
G1 X136.19 Y78.049 E24.35647
G1 X136.12 Y78.962 E24.41508
G1 X135.918 Y80.597 E24.52051
G1 X135.786 Y81.395 E24.57228
G1 X135.449 Y83.009 E24.6778
G1 X135.257 Y83.774 E24.72828
G1 X134.792 Y85.351 E24.8335
G1 X134.53 Y86.12 E24.8855
G1 X133.934 Y87.657 E24.991
G1 X133.613 Y88.393 E25.04239
G1 X132.893 Y89.875 E25.14784
G1 X132.513 Y90.581 E25.19915
G1 X131.675 Y91.997 E25.30446
G1 X131.238 Y92.671 E25.35587
G1 X131.082 Y92.891 E25.37313
G1 X131.545 Y93.143 E25.40686
G1 X132.28 Y93.634 E25.46344
G1 X132.967 Y94.188 E25.51992
G1 X133.602 Y94.803 E25.57649
G1 X134.178 Y95.473 E25.63304
G1 X134.691 Y96.192 E25.68957
G1 X135.138 Y96.954 E25.74611
G1 X135.513 Y97.754 E25.80266
G1 X135.815 Y98.584 E25.85918
G1 X136.04 Y99.438 E25.9157
G1 X136.187 Y100.309 E25.97224
G1 X136.255 Y101.19 E26.02879
G1 X136.256 Y101.782 E26.06668
G1 X136.19 Y104.049 E26.21183
G1 X136.12 Y104.962 E26.27043
G1 X135.918 Y106.597 E26.37586
G1 X135.786 Y107.395 E26.42763
G1 X135.449 Y109.009 E26.53315
G1 X135.257 Y109.774 E26.58363
G1 X134.792 Y111.351 E26.68886
G1 X134.53 Y112.12 E26.74085
G1 X133.934 Y113.657 E26.84636
G1 X133.613 Y114.393 E26.89774
G1 X132.893 Y115.875 E27.00319
G1 X132.513 Y116.581 E27.05451
G1 X131.675 Y117.997 E27.15981
G1 X131.238 Y118.671 E27.21122
G1 X130.285 Y120.015 E27.31667
G1 X129.787 Y120.659 E27.36877
G1 X129.588 Y120.895 E27.38853
G1 X129.769 Y120.973 E27.40114
G1 X130.545 Y121.395 E27.45767
G1 X131.28 Y121.886 E27.51424
G1 X131.967 Y122.44 E27.57072
G1 X132.602 Y123.055 E27.6273
G1 X133.178 Y123.725 E27.68385
G1 X133.691 Y124.444 E27.74038
G1 X134.138 Y125.206 E27.79692
G1 X134.513 Y126.006 E27.85346
G1 X134.815 Y126.836 E27.90999
G1 X135.04 Y127.69 E27.96651
G1 X135.187 Y128.561 E28.02304
G1 X135.26 Y129.75 E28.09928
G1 X135.26 Y141.25 E28.83528
G1 X135.22 Y142.132 E28.89179
G1 X135.1 Y143.008 E28.94838
G1 X134.902 Y143.869 E29.00492
G1 X134.627 Y144.708 E29.06142
G1 X134.277 Y145.519 E29.11796
G1 X133.855 Y146.295 E29.17449
G1 X133.364 Y147.03 E29.23106
G1 X132.81 Y147.717 E29.28754
G1 X132.195 Y148.352 E29.34412
G1 X131.525 Y148.928 E29.40067
G1 X130.806 Y149.441 E29.45719
G1 X130.044 Y149.888 E29.51373
G1 X129.244 Y150.263 E29.57028
G1 X128.414 Y150.565 E29.62681
G1 X127.56 Y150.79 E29.68333
G1 X126.689 Y150.937 E29.73986
G1 X125.5 Y151.01 E29.8161
G1 X95.5 Y151.01 E31.7361
G1 X94.618 Y150.97 E31.7926
G1 X93.742 Y150.85 E31.84919
G1 X92.881 Y150.652 E31.90573
G1 X92.042 Y150.377 E31.96224
G1 X91.231 Y150.027 E32.01877
G1 X90.455 Y149.605 E32.07531
G1 X89.72 Y149.114 E32.13188
G1 X89.033 Y148.56 E32.18836
G1 X88.398 Y147.945 E32.24493
G1 X87.822 Y147.275 E32.30148
G1 X87.309 Y146.556 E32.35801
G1 X86.862 Y145.794 E32.41455
G1 X86.487 Y144.994 E32.4711
G1 X86.185 Y144.164 E32.52762
G1 X85.96 Y143.31 E32.58414
G1 X85.813 Y142.439 E32.64068
G1 X85.74 Y141.25 E32.71692
G1 X85.74 Y129.75 E33.45292
G1 X85.78 Y128.868 E33.50942
G1 X85.9 Y127.992 E33.56601
G1 X86.098 Y127.131 E33.62255
G1 X86.138 Y127.01 E33.63071
G1 X62.5 Y127.01 E35.14354
G1 X61.618 Y126.97 E35.20005
G1 X60.742 Y126.85 E35.25663
G1 X59.881 Y126.652 E35.31318
G1 X59.042 Y126.377 E35.36968
G1 X58.231 Y126.027 E35.42621
G1 X57.455 Y125.605 E35.48275
G1 X56.72 Y125.114 E35.53932
G1 X56.033 Y124.56 E35.5958
G1 X55.398 Y123.945 E35.65238
G1 X54.822 Y123.275 E35.70892
G1 X54.309 Y122.556 E35.76545
G1 X53.862 Y121.794 E35.82199
G1 X53.487 Y120.994 E35.87854
G1 X53.185 Y120.164 E35.93506
G1 X52.96 Y119.31 E35.99159
G1 X52.813 Y118.439 E36.04812
G1 X52.74 Y117.25 E36.12436
G1 X52.74 Y105.75 E36.86036
G1 X52.78 Y104.868 E36.91686
G1 X52.9 Y103.992 E36.97345
G1 X53.098 Y103.131 E37.02999
G1 X53.373 Y102.292 E37.0865
G1 X53.723 Y101.481 E37.14303
G1 X54.145 Y100.705 E37.19956
G1 X54.636 Y99.97 E37.25613
G1 X55.19 Y99.283 E37.31262
G1 X55.805 Y98.648 E37.36919
G1 X56.475 Y98.072 E37.42574
G1 X57.194 Y97.559 E37.48227
G1 X57.956 Y97.112 E37.53881
G1 X58.756 Y96.737 E37.59535
G1 X59.586 Y96.435 E37.65188
G1 X60.44 Y96.21 E37.7084
G1 X61.311 Y96.063 E37.76493
G1 X62.5 Y95.99 E37.84117
G1 X88.444 Y95.99 E39.50159
G1 X88.464 Y95.958 E39.50401
G1 X88.998 Y95.254 E39.56056
G1 X89.593 Y94.601 E39.6171
G1 X90.245 Y94.005 E39.67363
G1 X90.948 Y93.47 E39.73017
G1 X91.696 Y93.001 E39.78667
G1 X91.916 Y92.89 E39.80244
G1 X91.779 Y92.697 E39.81759
G1 X91.338 Y92.019 E39.86935
G1 X90.499 Y90.604 E39.97464
G1 X90.118 Y89.896 E40.02609
G1 X89.397 Y88.414 E40.13157
G1 X89.076 Y87.68 E40.18284
G1 X88.479 Y86.144 E40.28831
G1 X88.218 Y85.379 E40.34004
G1 X87.751 Y83.802 E40.4453
G1 X87.556 Y83.032 E40.49614
G1 X87.218 Y81.418 E40.60167
G1 X87.085 Y80.62 E40.65345
G1 X86.882 Y78.986 E40.75883
G1 X86.812 Y78.078 E40.81712
G1 X86.743 Y75.793 E40.96342
G1 X86.757 Y74.909 E41.02001
G1 X86.85 Y74.031 E41.07651
G1 X87.022 Y73.164 E41.13308
G1 X87.272 Y72.317 E41.1896
G1 X87.597 Y71.496 E41.24611
G1 X87.996 Y70.707 E41.3027
G1 X88.464 Y69.958 E41.35922
G1 X88.998 Y69.254 E41.41577
G0 F3000 X89.318 Y69.371
G1 F1500 X89.911 Y68.737 E41.47133
G1 X90.561 Y68.16 E41.52696
G1 X91.261 Y67.645 E41.58258
G1 X92.005 Y67.196 E41.63819
G1 X92.787 Y66.818 E41.69378
G1 X93.601 Y66.514 E41.74939
G1 X94.439 Y66.286 E41.80497
G1 X95.295 Y66.135 E41.8606
G1 X96.499 Y66.058 E41.93781
G1 X126.5 Y66.058 E43.85788
G1 X127.368 Y66.098 E43.91349
G1 X128.228 Y66.218 E43.96906
G1 X129.074 Y66.416 E44.02467
G1 X129.898 Y66.691 E44.08027
G1 X130.694 Y67.041 E44.13592
G1 X131.453 Y67.462 E44.19146
G1 X132.171 Y67.951 E44.24706
G1 X132.841 Y68.505 E44.3027
G1 X133.457 Y69.117 E44.35828
G1 X134.014 Y69.784 E44.41389
G1 X134.508 Y70.499 E44.46951
G1 X134.933 Y71.256 E44.52507
G1 X135.288 Y72.05 E44.58073
G1 X135.567 Y72.872 E44.63629
G1 X135.77 Y73.717 E44.69191
G1 X135.895 Y74.577 E44.74753
G1 X135.936 Y75.773 E44.82412
G1 X135.87 Y78.04 E44.96927
G1 X135.803 Y78.922 E45.02588
G1 X135.601 Y80.557 E45.13131
G1 X135.473 Y81.329 E45.18139
G1 X135.136 Y82.943 E45.28692
G1 X134.95 Y83.684 E45.33581
G1 X134.485 Y85.261 E45.44104
G1 X134.231 Y86.004 E45.49129
G1 X133.635 Y87.541 E45.5968
G1 X133.325 Y88.253 E45.6465
G1 X132.605 Y89.735 E45.75195
G1 X132.238 Y90.418 E45.80157
G1 X131.4 Y91.834 E45.90687
G1 X130.977 Y92.486 E45.95661
G1 X130.61 Y93.004 E45.99724
G1 X130.694 Y93.041 E46.00312
G1 X131.453 Y93.462 E46.05867
G1 X132.171 Y93.951 E46.11426
G1 X132.841 Y94.505 E46.1699
G1 X133.457 Y95.117 E46.22548
G1 X134.014 Y95.784 E46.28109
G1 X134.508 Y96.499 E46.33671
G1 X134.933 Y97.256 E46.39227
G1 X135.288 Y98.05 E46.44794
G1 X135.567 Y98.872 E46.50349
G1 X135.77 Y99.717 E46.55911
G1 X135.895 Y100.577 E46.61473
G1 X135.936 Y101.773 E46.69132
G1 X135.87 Y104.04 E46.83647
G1 X135.803 Y104.922 E46.89308
G1 X135.601 Y106.557 E46.99851
G1 X135.473 Y107.329 E47.0486
G1 X135.136 Y108.943 E47.15412
G1 X134.95 Y109.684 E47.20301
G1 X134.485 Y111.261 E47.30824
G1 X134.231 Y112.004 E47.35849
G1 X133.635 Y113.541 E47.464
G1 X133.325 Y114.253 E47.5137
G1 X132.605 Y115.735 E47.61915
G1 X132.238 Y116.418 E47.66877
G1 X131.4 Y117.834 E47.77407
G1 X130.977 Y118.486 E47.82381
G1 X130.024 Y119.83 E47.92926
G1 X129.542 Y120.453 E47.97967
G1 X129.067 Y121.017 E48.02686
G1 X129.694 Y121.293 E48.07071
G1 X130.453 Y121.714 E48.12626
G1 X131.171 Y122.203 E48.18185
G1 X131.841 Y122.757 E48.23749
G1 X132.457 Y123.369 E48.29307
G1 X133.014 Y124.036 E48.34868
G1 X133.508 Y124.751 E48.4043
G1 X133.933 Y125.508 E48.45986
G1 X134.288 Y126.302 E48.51553
G1 X134.567 Y127.124 E48.57108
G1 X134.77 Y127.969 E48.6267
G1 X134.895 Y128.829 E48.68232
G1 X134.94 Y129.75 E48.74133
G1 X134.94 Y141.25 E49.47733
G1 X134.9 Y142.118 E49.53294
G1 X134.78 Y142.978 E49.58852
G1 X134.582 Y143.824 E49.64412
G1 X134.307 Y144.648 E49.69972
G1 X133.957 Y145.444 E49.75537
G1 X133.536 Y146.203 E49.81092
G1 X133.047 Y146.921 E49.86652
G1 X132.493 Y147.591 E49.92216
G1 X131.881 Y148.207 E49.97773
G1 X131.214 Y148.764 E50.03334
G1 X130.499 Y149.258 E50.08896
G1 X129.742 Y149.683 E50.14453
G1 X128.948 Y150.038 E50.20019
G1 X128.126 Y150.317 E50.25575
G1 X127.281 Y150.52 E50.31136
G1 X126.421 Y150.645 E50.36698
G1 X125.5 Y150.69 E50.426
G1 X95.5 Y150.69 E52.346
G1 X94.632 Y150.65 E52.40161
G1 X93.772 Y150.53 E52.45718
G1 X92.926 Y150.332 E52.51279
G1 X92.102 Y150.057 E52.56838
G1 X91.306 Y149.707 E52.62403
G1 X90.547 Y149.286 E52.67958
G1 X89.829 Y148.797 E52.73518
G1 X89.159 Y148.243 E52.79082
G1 X88.543 Y147.631 E52.84639
G1 X87.986 Y146.964 E52.90201
G1 X87.492 Y146.249 E52.95763
G1 X87.067 Y145.492 E53.01319
G1 X86.712 Y144.698 E53.06885
G1 X86.433 Y143.876 E53.12441
G1 X86.23 Y143.031 E53.18003
G1 X86.105 Y142.171 E53.23565
G1 X86.06 Y141.25 E53.29466
G1 X86.06 Y129.75 E54.03066
G1 X86.1 Y128.882 E54.08627
G1 X86.22 Y128.022 E54.14184
G1 X86.418 Y127.176 E54.19745
G1 X86.58 Y126.69 E54.23024
G1 X62.5 Y126.69 E55.77136
G1 X61.632 Y126.65 E55.82697
G1 X60.772 Y126.53 E55.88254
G1 X59.926 Y126.332 E55.93815
G1 X59.102 Y126.057 E55.99374
G1 X58.306 Y125.707 E56.0494
G1 X57.547 Y125.286 E56.10494
G1 X56.829 Y124.797 E56.16054
G1 X56.159 Y124.243 E56.21618
G1 X55.543 Y123.631 E56.27175
G1 X54.986 Y122.964 E56.32737
G1 X54.492 Y122.249 E56.38299
G1 X54.067 Y121.492 E56.43855
G1 X53.712 Y120.698 E56.49421
G1 X53.433 Y119.876 E56.54977
G1 X53.23 Y119.031 E56.60539
G1 X53.105 Y118.171 E56.66101
G1 X53.06 Y117.25 E56.72002
G1 X53.06 Y105.75 E57.45602
G1 X53.1 Y104.882 E57.51163
