;START_OF_HEADER
;HEADER_VERSION:0.1
;FLAVOR:Griffin
;GENERATOR.NAME:Cura_SteamEngine
;GENERATOR.VERSION:2.6.1
;GENERATOR.BUILD_DATE:2017-06-27
;TARGET_MACHINE.NAME:Ultimaker 3 Extended
;EXTRUDER_TRAIN.0.INITIAL_TEMPERATURE:215
;EXTRUDER_TRAIN.0.MATERIAL.VOLUME_USED:61417
;EXTRUDER_TRAIN.0.MATERIAL.GUID:506c9f0d-e3aa-4bd4-b2d2-23e2425b1aa9
;EXTRUDER_TRAIN.0.NOZZLE.DIAMETER:0.4
;BUILD_PLATE.INITIAL_TEMPERATURE:60
;PRINT.TIME:42037
;PRINT.SIZE.MIN.X:9
;PRINT.SIZE.MIN.Y:6
;PRINT.SIZE.MIN.Z:0.2
;PRINT.SIZE.MAX.X:184.08
;PRINT.SIZE.MAX.Y:197.58
;PRINT.SIZE.MAX.Z:6
;END_OF_HEADER
;Generated with Cura_SteamEngine 2.6.1

T0
G92 E0

M109 S215
G0 F6000 X9 Y6 Z2
G280
G1 F1500 E-5
;LAYER_COUNT:30
;LAYER:0
M107
M204 S250
M205 X2.5
G0 F3000 X182.949 Y186.169 Z0.2
M204 S100
M205 X0.5
;TYPE:SKIRT
G1 F1500 E0
G1 X182.499 Y187.257 E0.01181
G1 X182.119 Y188.07 E0.02082
G1 X181.777 Y188.673 E0.02777
G1 X181.162 Y189.676 E0.03957
G1 X180.659 Y190.42 E0.04858
G1 X180.231 Y190.956 E0.05546
G1 X179.466 Y191.851 E0.06728
G1 X178.853 Y192.507 E0.07628
G1 X178.354 Y192.964 E0.08307
G1 X177.458 Y193.73 E0.0949
G1 X176.75 Y194.282 E0.1039
G1 X176.181 Y194.659 E0.11075
G1 X175.179 Y195.274 E0.12255
G1 X174.394 Y195.709 E0.13155
G1 X173.759 Y195.998 E0.13855
G1 X172.671 Y196.448 E0.15036
G1 X171.827 Y196.754 E0.15937
G1 X171.174 Y196.934 E0.16616
G1 X170.03 Y197.209 E0.17797
G1 X169.149 Y197.38 E0.18697
G1 X168.461 Y197.457 E0.19392
G1 X167.286 Y197.549 E0.20574
G1 X166.499 Y197.58 E0.21364
G1 X59 Y197.58 E1.2921
G1 X58.103 Y197.54 E1.30111
G1 X57.213 Y197.42 E1.31012
G1 X56.338 Y197.222 E1.31912
G1 X55.483 Y196.947 E1.32813
G1 X54.657 Y196.596 E1.33714
G1 X53.865 Y196.174 E1.34614
G1 X53.113 Y195.682 E1.35515
G1 X52.408 Y195.126 E1.36416
G1 X51.756 Y194.509 E1.37317
G1 X51.161 Y193.837 E1.38217
G1 X50.628 Y193.114 E1.39118
G1 X50.162 Y192.347 E1.40019
G1 X49.766 Y191.542 E1.40919
G1 X49.443 Y190.704 E1.4182
G1 X49.196 Y189.841 E1.4272
G1 X49.026 Y188.959 E1.43621
G1 X48.936 Y188.066 E1.44522
G1 X48.92 Y187.5 E1.4509
G1 X48.92 Y27.5 E3.05607
G1 X48.96 Y26.603 E3.06507
G1 X49.08 Y25.713 E3.07408
G1 X49.278 Y24.838 E3.08308
G1 X49.553 Y23.983 E3.09209
G1 X49.904 Y23.157 E3.1011
G1 X50.326 Y22.365 E3.1101
G1 X50.818 Y21.613 E3.11912
G1 X51.374 Y20.908 E3.12812
G1 X51.991 Y20.256 E3.13713
G1 X52.663 Y19.661 E3.14613
G1 X53.386 Y19.128 E3.15515
G1 X54.153 Y18.662 E3.16415
G1 X54.958 Y18.266 E3.17315
G1 X55.796 Y17.943 E3.18216
G1 X56.659 Y17.696 E3.19117
G1 X57.541 Y17.526 E3.20018
G1 X58.434 Y17.436 E3.20918
G1 X59 Y17.42 E3.21486
G1 X166.499 Y17.42 E4.29332
G1 X167.286 Y17.451 E4.30122
G1 X168.461 Y17.543 E4.31305
G1 X169.352 Y17.653 E4.32206
G1 X170.03 Y17.791 E4.329
G1 X171.174 Y18.066 E4.3408
G1 X172.037 Y18.315 E4.34981
G1 X172.669 Y18.552 E4.35658
G1 X173.755 Y19.001 E4.36837
G1 X174.569 Y19.38 E4.37738
G1 X175.173 Y19.723 E4.38435
G1 X176.176 Y20.338 E4.39615
G1 X176.92 Y20.841 E4.40516
G1 X177.456 Y21.269 E4.41204
G1 X178.351 Y22.034 E4.42386
G1 X179.007 Y22.647 E4.43286
G1 X179.463 Y23.145 E4.43964
G1 X180.23 Y24.042 E4.45148
G1 X180.783 Y24.75 E4.46049
G1 X181.163 Y25.326 E4.46741
G1 X181.771 Y26.318 E4.47909
G1 X182.206 Y27.103 E4.48809
G1 X182.484 Y27.713 E4.49481
G1 X182.94 Y28.809 E4.50672
G1 X183.247 Y29.652 E4.51572
G1 X183.434 Y30.327 E4.52275
G1 X183.709 Y31.472 E4.53456
G1 X183.88 Y32.353 E4.54357
G1 X183.957 Y33.038 E4.55048
G1 X184.049 Y34.211 E4.56229
G1 X184.08 Y34.999 E4.5702
G1 X184.08 Y179.999 E6.02488
G1 X184.049 Y180.786 E6.03278
G1 X183.957 Y181.961 E6.04461
G1 X183.847 Y182.852 E6.05361
G1 X183.71 Y183.526 E6.06051
G1 X183.436 Y184.668 E6.0723
G1 X183.188 Y185.531 E6.0813
G1 X182.949 Y186.169 E6.08814
M204 S250
M205 X2.5
G0 F3000 X182.653 Y186.046
M204 S100
M205 X0.5
G1 F1500 X182.203 Y187.134 E6.09995
G1 X181.829 Y187.935 E6.10882
G1 X181.504 Y188.506 E6.11541
G1 X180.889 Y189.509 E6.12722
G1 X180.394 Y190.24 E6.13607
G1 X179.988 Y190.748 E6.1426
G1 X179.223 Y191.643 E6.15441
G1 X178.619 Y192.288 E6.16327
G1 X178.146 Y192.721 E6.16971
G1 X177.25 Y193.487 E6.18153
G1 X176.553 Y194.03 E6.1904
G1 X176.013 Y194.386 E6.19689
G1 X175.011 Y195.001 E6.20868
G1 X174.238 Y195.429 E6.21754
G1 X173.636 Y195.702 E6.22418
G1 X172.548 Y196.152 E6.23599
G1 X171.718 Y196.452 E6.24484
G1 X171.099 Y196.623 E6.25128
G1 X169.955 Y196.898 E6.26309
G1 X169.088 Y197.065 E6.27195
G1 X168.436 Y197.138 E6.27853
G1 X167.261 Y197.23 E6.29035
G1 X166.499 Y197.26 E6.298
G1 X59 Y197.26 E7.37646
G1 X58.118 Y197.22 E7.38532
G1 X57.242 Y197.1 E7.39419
G1 X56.381 Y196.902 E7.40306
G1 X55.542 Y196.627 E7.41191
G1 X54.731 Y196.277 E7.42077
G1 X53.955 Y195.855 E7.42964
G1 X53.22 Y195.364 E7.4385
G1 X52.533 Y194.81 E7.44736
G1 X51.898 Y194.195 E7.45623
G1 X51.322 Y193.525 E7.46509
G1 X50.809 Y192.806 E7.47395
G1 X50.362 Y192.044 E7.48281
G1 X49.987 Y191.244 E7.49168
G1 X49.685 Y190.414 E7.50054
G1 X49.46 Y189.56 E7.5094
G1 X49.313 Y188.689 E7.51826
G1 X49.24 Y187.5 E7.53021
G1 X49.24 Y27.5 E9.13538
G1 X49.28 Y26.618 E9.14424
G1 X49.4 Y25.742 E9.15311
G1 X49.598 Y24.881 E9.16197
G1 X49.873 Y24.042 E9.17083
G1 X50.223 Y23.231 E9.17969
G1 X50.645 Y22.455 E9.18855
G1 X51.136 Y21.72 E9.19742
G1 X51.69 Y21.033 E9.20627
G1 X52.305 Y20.398 E9.21514
G1 X52.975 Y19.822 E9.22401
G1 X53.694 Y19.309 E9.23287
G1 X54.456 Y18.862 E9.24173
G1 X55.256 Y18.487 E9.25059
G1 X56.086 Y18.185 E9.25945
G1 X56.94 Y17.96 E9.26831
G1 X57.811 Y17.813 E9.27718
G1 X59 Y17.74 E9.28913
G1 X166.499 Y17.74 E10.36759
G1 X167.261 Y17.77 E10.37524
G1 X168.436 Y17.862 E10.38706
G1 X169.313 Y17.971 E10.39593
G1 X169.955 Y18.102 E10.4025
G1 X171.099 Y18.377 E10.41431
G1 X171.948 Y18.622 E10.42317
G1 X172.547 Y18.847 E10.42959
G1 X173.633 Y19.296 E10.44138
G1 X174.433 Y19.671 E10.45024
G1 X175.006 Y19.996 E10.45685
G1 X176.009 Y20.611 E10.46866
G1 X176.74 Y21.106 E10.47751
G1 X177.248 Y21.512 E10.48404
G1 X178.143 Y22.277 E10.49585
G1 X178.788 Y22.881 E10.50471
G1 X179.22 Y23.353 E10.51113
G1 X179.987 Y24.25 E10.52297
G1 X180.53 Y24.947 E10.53184
G1 X180.89 Y25.493 E10.5384
G1 X181.498 Y26.485 E10.55007
G1 X181.925 Y27.258 E10.55893
G1 X182.188 Y27.836 E10.5653
G1 X182.644 Y28.932 E10.57721
G1 X182.946 Y29.762 E10.58607
G1 X183.123 Y30.402 E10.59273
G1 X183.398 Y31.547 E10.60455
G1 X183.565 Y32.414 E10.61341
G1 X183.638 Y33.063 E10.61996
G1 X183.73 Y34.236 E10.63176
G1 X183.76 Y34.999 E10.63942
G1 X183.76 Y179.999 E12.0941
G1 X183.73 Y180.761 E12.10176
G1 X183.638 Y181.936 E12.11358
G1 X183.529 Y182.813 E12.12245
G1 X183.399 Y183.451 E12.12898
G1 X183.125 Y184.593 E12.14076
G1 X182.88 Y185.442 E12.14962
G1 X182.653 Y186.046 E12.1561
M204 S250
M205 X2.5
G0 F3000 X182.357 Y185.924
M204 S100
M205 X0.5
G1 F1500 X181.907 Y187.012 E12.16791
G1 X181.539 Y187.799 E12.17663
G1 X181.232 Y188.338 E12.18285
G1 X180.617 Y189.341 E12.19465
G1 X180.129 Y190.06 E12.20337
G1 X179.745 Y190.541 E12.20954
G1 X178.98 Y191.436 E12.22136
G1 X178.386 Y192.069 E12.23006
G1 X177.938 Y192.477 E12.23614
G1 X177.042 Y193.243 E12.24797
G1 X176.357 Y193.777 E12.25668
G1 X175.846 Y194.113 E12.26282
G1 X174.844 Y194.728 E12.27461
G1 X174.083 Y195.148 E12.28333
G1 X173.514 Y195.406 E12.2896
G1 X172.426 Y195.856 E12.30141
G1 X171.609 Y196.151 E12.31013
G1 X171.024 Y196.312 E12.31622
G1 X169.88 Y196.587 E12.32802
G1 X169.027 Y196.751 E12.33673
G1 X168.411 Y196.819 E12.34295
G1 X167.236 Y196.911 E12.35477
G1 X166.499 Y196.94 E12.36217
G1 X59 Y196.94 E13.44064
G1 X58.132 Y196.9 E13.44935
G1 X57.272 Y196.78 E13.45806
G1 X56.426 Y196.582 E13.46678
G1 X55.602 Y196.307 E13.4755
G1 X54.806 Y195.957 E13.48422
G1 X54.047 Y195.536 E13.49293
G1 X53.329 Y195.047 E13.50164
G1 X52.659 Y194.493 E13.51036
G1 X52.043 Y193.881 E13.51908
G1 X51.486 Y193.214 E13.52779
G1 X50.992 Y192.499 E13.53651
G1 X50.567 Y191.742 E13.54522
G1 X50.212 Y190.948 E13.55395
G1 X49.933 Y190.126 E13.56266
G1 X49.73 Y189.281 E13.57137
G1 X49.605 Y188.421 E13.58009
G1 X49.56 Y187.5 E13.58934
G1 X49.56 Y27.5 E15.19451
G1 X49.6 Y26.632 E15.20323
G1 X49.72 Y25.772 E15.21194
G1 X49.918 Y24.926 E15.22066
G1 X50.193 Y24.102 E15.22937
G1 X50.543 Y23.306 E15.23809
G1 X50.964 Y22.547 E15.2468
G1 X51.453 Y21.829 E15.25552
G1 X52.007 Y21.159 E15.26424
G1 X52.619 Y20.543 E15.27295
G1 X53.286 Y19.986 E15.28167
G1 X54.001 Y19.492 E15.29039
G1 X54.758 Y19.067 E15.2991
G1 X55.552 Y18.712 E15.30782
G1 X56.374 Y18.433 E15.31653
G1 X57.219 Y18.23 E15.32525
G1 X58.079 Y18.105 E15.33397
G1 X59 Y18.06 E15.34322
G1 X166.499 Y18.06 E16.42168
G1 X167.236 Y18.089 E16.42908
G1 X168.411 Y18.181 E16.4409
G1 X169.273 Y18.288 E16.44962
G1 X169.88 Y18.413 E16.45584
G1 X171.024 Y18.688 E16.46764
G1 X171.859 Y18.93 E16.47636
G1 X172.425 Y19.143 E16.48243
G1 X173.511 Y19.592 E16.49422
G1 X174.298 Y19.961 E16.50294
G1 X174.838 Y20.268 E16.50917
G1 X175.841 Y20.883 E16.52097
G1 X176.56 Y21.371 E16.52969
G1 X177.041 Y21.755 E16.53587
G1 X177.936 Y22.52 E16.54768
G1 X178.569 Y23.114 E16.55639
G1 X178.977 Y23.561 E16.56246
G1 X179.744 Y24.458 E16.5743
G1 X180.277 Y25.144 E16.58301
G1 X180.618 Y25.66 E16.58922
G1 X181.226 Y26.652 E16.60089
G1 X181.645 Y27.413 E16.60961
G1 X181.893 Y27.959 E16.61562
G1 X182.349 Y29.055 E16.62753
G1 X182.645 Y29.871 E16.63624
G1 X182.812 Y30.476 E16.64254
G1 X183.087 Y31.621 E16.65435
G1 X183.251 Y32.475 E16.66307
G1 X183.319 Y33.088 E16.66926
G1 X183.411 Y34.261 E16.68107
G1 X183.44 Y34.999 E16.68847
G1 X183.44 Y179.999 E18.14316
G1 X183.411 Y180.736 E18.15056
G1 X183.319 Y181.911 E18.16238
G1 X183.212 Y182.773 E18.1711
G1 X183.087 Y183.376 E18.17727
G1 X182.813 Y184.518 E18.18906
G1 X182.572 Y185.353 E18.19777
G1 X182.357 Y185.924 E18.2039
M204 S250
M205 X2.5
G0 F3000 X182.062 Y185.802
M204 S100
M205 X0.5
G1 F1500 X181.612 Y186.89 E18.21571
G1 X181.249 Y187.663 E18.22428
G1 X180.959 Y188.171 E18.23014
G1 X180.344 Y189.174 E18.24195
G1 X179.864 Y189.881 E18.25052
G1 X179.502 Y190.333 E18.25633
G1 X178.737 Y191.228 E18.26814
G1 X178.152 Y191.85 E18.27671
G1 X177.73 Y192.234 E18.28243
G1 X176.834 Y193 E18.29426
G1 X176.16 Y193.524 E18.30282
G1 X175.679 Y193.841 E18.3086
G1 X174.677 Y194.456 E18.3204
G1 X173.929 Y194.868 E18.32896
G1 X173.392 Y195.111 E18.33488
G1 X172.304 Y195.561 E18.34669
G1 X171.5 Y195.85 E18.35526
G1 X170.95 Y196 E18.36098
G1 X169.806 Y196.275 E18.37278
G1 X168.967 Y196.436 E18.38135
G1 X168.386 Y196.5 E18.38722
G1 X167.211 Y196.592 E18.39904
G1 X166.499 Y196.62 E18.40619
G1 X59 Y196.62 E19.48465
G1 X58.147 Y196.58 E19.49322
G1 X57.301 Y196.46 E19.50179
G1 X56.471 Y196.262 E19.51035
G1 X55.662 Y195.987 E19.51892
G1 X54.883 Y195.638 E19.52749
G1 X54.14 Y195.217 E19.53606
G1 X53.44 Y194.729 E19.54462
G1 X52.788 Y194.177 E19.55319
G1 X52.191 Y193.567 E19.56175
G1 X51.653 Y192.903 E19.57032
G1 X51.18 Y192.193 E19.57888
G1 X50.775 Y191.441 E19.58745
G1 X50.443 Y190.654 E19.59602
G1 X50.185 Y189.84 E19.60459
G1 X50.005 Y189.005 E19.61316
G1 X49.904 Y188.157 E19.62172
G1 X49.88 Y187.5 E19.62832
G1 X49.88 Y27.5 E21.23349
G1 X49.92 Y26.647 E21.24205
G1 X50.04 Y25.801 E21.25063
G1 X50.238 Y24.971 E21.25919
G1 X50.513 Y24.162 E21.26776
G1 X50.862 Y23.383 E21.27632
G1 X51.283 Y22.64 E21.28489
G1 X51.771 Y21.94 E21.29345
G1 X52.323 Y21.288 E21.30202
G1 X52.933 Y20.691 E21.31058
G1 X53.597 Y20.153 E21.31916
G1 X54.307 Y19.68 E21.32772
G1 X55.059 Y19.275 E21.33628
G1 X55.846 Y18.943 E21.34485
G1 X56.66 Y18.685 E21.35342
G1 X57.495 Y18.505 E21.36199
G1 X58.343 Y18.404 E21.37056
G1 X59 Y18.38 E21.37715
G1 X166.499 Y18.38 E22.45562
G1 X167.211 Y18.408 E22.46276
G1 X168.386 Y18.5 E22.47459
G1 X169.233 Y18.606 E22.48315
G1 X169.806 Y18.725 E22.48902
G1 X170.95 Y19 E22.50083
G1 X171.77 Y19.238 E22.50939
G1 X172.303 Y19.439 E22.51511
G1 X173.389 Y19.888 E22.5269
G1 X174.162 Y20.251 E22.53546
G1 X174.671 Y20.541 E22.54134
G1 X175.674 Y21.156 E22.55314
G1 X176.381 Y21.636 E22.56172
G1 X176.833 Y21.998 E22.56753
G1 X177.728 Y22.763 E22.57934
G1 X178.35 Y23.348 E22.58791
G1 X178.734 Y23.769 E22.59362
G1 X179.501 Y24.666 E22.60546
G1 X180.024 Y25.34 E22.61402
G1 X180.345 Y25.827 E22.61987
G1 X180.953 Y26.819 E22.63155
G1 X181.364 Y27.567 E22.64011
G1 X181.597 Y28.082 E22.64578
G1 X182.053 Y29.178 E22.65769
G1 X182.344 Y29.981 E22.66626
G1 X182.501 Y30.551 E22.67219
G1 X182.776 Y31.696 E22.684
G1 X182.936 Y32.535 E22.69257
G1 X183 Y33.113 E22.6984
G1 X183.092 Y34.286 E22.71021
G1 X183.12 Y34.999 E22.71737
G1 X183.12 Y179.999 E24.17205
G1 X183.092 Y180.711 E24.1792
G1 X183 Y181.886 E24.19102
G1 X182.894 Y182.733 E24.19959
G1 X182.776 Y183.302 E24.20542
G1 X182.502 Y184.444 E24.2172
G1 X182.264 Y185.264 E24.22576
G1 X182.062 Y185.802 E24.23153
M204 S250
M205 X2.5
G0 F3000 X181.766 Y185.679
M204 S100
M205 X0.5
G1 F1500 X181.316 Y186.767 E24.24334
G1 X180.959 Y187.526 E24.25176
G1 X180.686 Y188.004 E24.25728
G1 X180.071 Y189.007 E24.26908
G1 X179.599 Y189.7 E24.27749
G1 X179.258 Y190.125 E24.28296
G1 X178.493 Y191.02 E24.29477
G1 X177.919 Y191.631 E24.30318
G1 X177.522 Y191.991 E24.30856
G1 X176.626 Y192.757 E24.32038
G1 X175.964 Y193.271 E24.32879
G1 X175.511 Y193.568 E24.33423
G1 X174.509 Y194.183 E24.34602
G1 X173.774 Y194.587 E24.35444
G1 X173.269 Y194.815 E24.36
G1 X172.181 Y195.265 E24.37181
G1 X171.392 Y195.548 E24.38022
G1 X170.875 Y195.689 E24.38559
G1 X169.731 Y195.964 E24.3974
G1 X168.907 Y196.121 E24.40581
G1 X168.361 Y196.181 E24.41132
G1 X167.186 Y196.273 E24.42315
G1 X166.499 Y196.3 E24.43004
G1 X59 Y196.3 E25.50851
G1 X58.162 Y196.26 E25.51692
G1 X57.332 Y196.14 E25.52534
G1 X56.517 Y195.942 E25.53375
G1 X55.724 Y195.668 E25.54217
G1 X54.962 Y195.319 E25.55058
G1 X54.235 Y194.899 E25.559
G1 X53.553 Y194.411 E25.56741
G1 X52.919 Y193.861 E25.57583
G1 X52.341 Y193.253 E25.58425
G1 X51.824 Y192.593 E25.59266
G1 X51.371 Y191.887 E25.60107
G1 X50.988 Y191.141 E25.60949
G1 X50.678 Y190.361 E25.61791
G1 X50.444 Y189.556 E25.62632
G1 X50.287 Y188.732 E25.63473
G1 X50.2 Y187.5 E25.64712
G1 X50.2 Y27.5 E27.25229
G1 X50.24 Y26.662 E27.26071
G1 X50.36 Y25.832 E27.26912
G1 X50.558 Y25.017 E27.27754
G1 X50.832 Y24.224 E27.28595
G1 X51.181 Y23.462 E27.29436
G1 X51.601 Y22.735 E27.30278
G1 X52.089 Y22.053 E27.3112
G1 X52.639 Y21.419 E27.31962
G1 X53.247 Y20.841 E27.32803
G1 X53.907 Y20.324 E27.33644
G1 X54.613 Y19.871 E27.34486
G1 X55.359 Y19.488 E27.35327
G1 X56.139 Y19.178 E27.36169
G1 X56.944 Y18.944 E27.3701
G1 X57.768 Y18.787 E27.37852
G1 X59 Y18.7 E27.39091
G1 X166.499 Y18.7 E28.46937
G1 X167.186 Y18.727 E28.47627
G1 X168.361 Y18.819 E28.48809
G1 X169.193 Y18.924 E28.49651
G1 X169.731 Y19.036 E28.50202
G1 X170.875 Y19.311 E28.51382
G1 X171.68 Y19.545 E28.52223
G1 X172.18 Y19.735 E28.5276
G1 X173.266 Y20.184 E28.53939
G1 X174.025 Y20.541 E28.5478
G1 X174.504 Y20.814 E28.55333
G1 X175.507 Y21.429 E28.56514
G1 X176.2 Y21.901 E28.57355
G1 X176.625 Y22.242 E28.57902
G1 X177.52 Y23.007 E28.59083
G1 X178.131 Y23.581 E28.59924
G1 X178.49 Y23.977 E28.6046
G1 X179.257 Y24.874 E28.61644
G1 X179.771 Y25.537 E28.62486
G1 X180.072 Y25.994 E28.63035
G1 X180.68 Y26.986 E28.64202
G1 X181.084 Y27.722 E28.65044
G1 X181.302 Y28.205 E28.65576
G1 X181.758 Y29.301 E28.66767
G1 X182.043 Y30.09 E28.67608
G1 X182.19 Y30.626 E28.68166
G1 X182.465 Y31.771 E28.69347
G1 X182.621 Y32.595 E28.70189
G1 X182.681 Y33.138 E28.70737
G1 X182.773 Y34.311 E28.71917
G1 X182.8 Y34.999 E28.72608
G1 X182.8 Y179.999 E30.18076
G1 X182.773 Y180.686 E30.18766
G1 X182.681 Y181.861 E30.19948
G1 X182.576 Y182.693 E30.2079
G1 X182.465 Y183.227 E30.21337
G1 X182.191 Y184.369 E30.22515
G1 X181.957 Y185.175 E30.23357
G1 X181.766 Y185.679 E30.23898
M204 S250
M205 X2.5
G0 F3000 X181.47 Y185.557
M204 S100
M205 X0.5
G1 F1500 X181.02 Y186.645 E30.25079
G1 X180.669 Y187.39 E30.25905
G1 X180.413 Y187.837 E30.26422
G1 X179.798 Y188.84 E30.27602
G1 X179.334 Y189.52 E30.28428
G1 X179.015 Y189.917 E30.28939
G1 X178.25 Y190.812 E30.3012
G1 X177.685 Y191.411 E30.30946
G1 X177.314 Y191.748 E30.31449
G1 X176.418 Y192.514 E30.32632
G1 X175.767 Y193.018 E30.33458
G1 X175.344 Y193.295 E30.33965
G1 X174.342 Y193.91 E30.35145
G1 X173.62 Y194.306 E30.35971
G1 X173.147 Y194.519 E30.36491
G1 X172.059 Y194.969 E30.37672
