;FLAVOR:UltiGCode
;TIME:23594
;MATERIAL:37252
;MATERIAL2:0
;NOZZLE_DIAMETER:0.4
;Generated with Cura_SteamEngine 2.6.1

;LAYER_COUNT:35
;LAYER:0
M107
G0 F3000 X52.4 Y52.106 Z0.2
;TYPE:SKIRT
G1 F1500 X53.074 Y51.514 E0.05741
G1 X53.447 Y51.229 E0.08746
G1 X54.207 Y50.676 E0.14761
G1 X54.956 Y50.181 E0.20507
G1 X55.746 Y49.754 E0.26254
G1 X56.571 Y49.399 E0.32002
G1 X57.021 Y49.241 E0.35054
G1 X57.913 Y48.951 E0.41057
G1 X58.779 Y48.712 E0.46807
G1 X59.662 Y48.55 E0.52553
G1 X60.556 Y48.468 E0.58298
G1 X61.026 Y48.457 E0.61307
G1 X161.494 Y48.42 E7.04302
G1 X162.391 Y48.46 E7.10049
G1 X163.075 Y48.544 E7.14459
G1 X164.003 Y48.691 E7.20472
G1 X164.883 Y48.871 E7.26221
G1 X165.743 Y49.128 E7.31966
G1 X166.577 Y49.461 E7.37713
G1 X166.994 Y49.661 E7.40673
G1 X167.83 Y50.086 E7.46675
G1 X168.611 Y50.529 E7.52421
G1 X169.35 Y51.038 E7.58164
G1 X170.041 Y51.612 E7.63913
G1 X170.395 Y51.95 E7.67046
G1 X171.06 Y52.616 E7.73069
G1 X171.665 Y53.279 E7.78814
G1 X172.209 Y53.993 E7.84559
G1 X172.688 Y54.753 E7.90308
G1 X172.904 Y55.153 E7.93217
G1 X173.33 Y55.987 E7.99211
G1 X173.702 Y56.804 E8.04956
G1 X174 Y57.65 E8.10697
G1 X174.222 Y58.52 E8.16443
G1 X174.31 Y59.004 E8.19592
G1 X174.456 Y59.931 E8.25597
G1 X174.556 Y60.823 E8.31342
G1 X174.579 Y61.503 E8.35697
G1 X174.542 Y161.974 E14.78711
G1 X174.502 Y162.871 E14.84457
G1 X174.382 Y163.76 E14.90199
G1 X174.183 Y164.636 E14.95948
G1 X174.05 Y165.08 E14.98914
G1 X173.761 Y165.971 E15.04909
G1 X173.446 Y166.812 E15.10657
G1 X173.058 Y167.621 E15.16399
G1 X172.599 Y168.393 E15.22147
G1 X172.33 Y168.783 E15.25179
G1 X171.779 Y169.542 E15.31182
G1 X171.22 Y170.244 E15.36925
G1 X170.6 Y170.894 E15.42674
G1 X169.926 Y171.486 E15.48415
G1 X169.553 Y171.771 E15.5142
G1 X168.793 Y172.324 E15.57435
G1 X168.044 Y172.819 E15.63181
G1 X167.254 Y173.246 E15.68928
G1 X166.429 Y173.601 E15.74676
G1 X165.979 Y173.759 E15.77729
G1 X165.087 Y174.049 E15.83732
G1 X164.221 Y174.288 E15.89481
G1 X163.338 Y174.45 E15.95227
G1 X162.444 Y174.532 E16.00972
G1 X161.974 Y174.543 E16.03981
G1 X61.506 Y174.58 E22.46976
G1 X60.609 Y174.54 E22.52723
G1 X59.925 Y174.456 E22.57133
G1 X58.997 Y174.309 E22.63147
G1 X58.117 Y174.129 E22.68895
G1 X57.257 Y173.872 E22.7464
G1 X56.423 Y173.539 E22.80387
G1 X56.002 Y173.336 E22.83378
G1 X55.165 Y172.91 E22.89389
G1 X54.384 Y172.468 E22.95132
G1 X53.645 Y171.958 E23.00879
G1 X52.955 Y171.384 E23.06623
G1 X52.604 Y171.049 E23.09728
G1 X51.94 Y170.384 E23.15743
G1 X51.335 Y169.721 E23.21487
G1 X50.791 Y169.007 E23.27232
G1 X50.312 Y168.247 E23.32981
G1 X50.094 Y167.843 E23.35919
G1 X49.667 Y167.006 E23.41933
G1 X49.295 Y166.189 E23.47678
G1 X48.997 Y165.342 E23.53425
G1 X48.776 Y164.472 E23.5917
G1 X48.688 Y163.988 E23.62318
G1 X48.543 Y163.064 E23.68304
G1 X48.443 Y162.171 E23.74055
G1 X48.421 Y161.497 E23.78371
G1 X48.458 Y61.026 E30.21385
G1 X48.498 Y60.129 E30.27132
G1 X48.618 Y59.24 E30.32873
G1 X48.817 Y58.364 E30.38622
G1 X48.95 Y57.92 E30.41589
G1 X49.239 Y57.029 E30.47583
G1 X49.554 Y56.188 E30.53331
G1 X49.942 Y55.379 E30.59073
G1 X50.401 Y54.607 E30.64821
G1 X50.67 Y54.217 E30.67854
G1 X51.221 Y53.458 E30.73856
G1 X51.78 Y52.756 E30.79599
G1 X52.4 Y52.106 E30.85348
G0 F3000 X52.642 Y52.318
G1 F1500 X53.636 Y51.488 E30.93636
G1 X54.396 Y50.935 E30.99652
G1 X55.133 Y50.448 E31.05305
G1 X55.911 Y50.03 E31.10957
G1 X57.12 Y49.545 E31.19294
G1 X58.012 Y49.255 E31.25297
G1 X58.864 Y49.02 E31.30954
G1 X59.733 Y48.864 E31.36604
G1 X61.026 Y48.777 E31.44898
G1 X161.494 Y48.74 E37.87893
G1 X162.377 Y48.78 E37.9355
G1 X163.025 Y48.86 E37.97729
G1 X163.953 Y49.007 E38.03742
G1 X164.818 Y49.185 E38.09394
G1 X165.664 Y49.44 E38.15049
G1 X166.849 Y49.947 E38.23298
G1 X167.685 Y50.372 E38.293
G1 X168.454 Y50.807 E38.34955
G1 X169.18 Y51.311 E38.40611
G1 X170.169 Y52.176 E38.4902
G1 X170.834 Y52.842 E38.55044
G1 X171.429 Y53.495 E38.60698
G1 X171.963 Y54.198 E38.66348
G1 X172.619 Y55.298 E38.74544
G1 X173.045 Y56.132 E38.80538
G1 X173.411 Y56.936 E38.86192
G1 X173.702 Y57.77 E38.91845
G1 X173.994 Y59.054 E39.00272
G1 X174.14 Y59.981 E39.06278
G1 X174.238 Y60.859 E39.11932
G1 X174.259 Y61.503 E39.16056
G1 X174.222 Y161.974 E45.59071
G1 X174.182 Y162.856 E45.64721
G1 X174.062 Y163.731 E45.70374
G1 X173.746 Y164.981 E45.78625
G1 X173.457 Y165.872 E45.8462
G1 X173.147 Y166.699 E45.90273
G1 X172.763 Y167.495 E45.95929
G1 X172.071 Y168.595 E46.04246
G1 X171.52 Y169.354 E46.10249
G1 X170.969 Y170.044 E46.159
G1 X170.358 Y170.682 E46.21553
G1 X169.364 Y171.512 E46.29841
G1 X168.604 Y172.065 E46.35857
G1 X167.867 Y172.552 E46.4151
G1 X167.089 Y172.97 E46.47163
G1 X165.88 Y173.455 E46.55499
G1 X164.988 Y173.745 E46.61502
G1 X164.136 Y173.98 E46.67159
G1 X163.267 Y174.136 E46.72809
G1 X161.974 Y174.223 E46.81103
G1 X61.506 Y174.26 E53.24099
G1 X60.623 Y174.22 E53.29755
G1 X59.975 Y174.14 E53.33934
G1 X59.047 Y173.993 E53.39947
G1 X58.182 Y173.815 E53.45599
G1 X57.336 Y173.56 E53.51254
G1 X56.147 Y173.051 E53.59532
G1 X55.31 Y172.625 E53.65543
G1 X54.542 Y172.189 E53.71195
G1 X53.816 Y171.686 E53.76847
G1 X52.83 Y170.823 E53.85233
G1 X52.166 Y170.158 E53.91248
G1 X51.571 Y169.505 E53.96902
G1 X51.037 Y168.802 E54.02552
G1 X50.379 Y167.697 E54.10783
G1 X49.952 Y166.86 E54.16796
G1 X49.587 Y166.056 E54.22447
G1 X49.295 Y165.222 E54.28103
G1 X49.004 Y163.938 E54.36529
G1 X48.859 Y163.014 E54.42515
G1 X48.762 Y162.136 E54.48168
G1 X48.741 Y161.497 E54.5226
G1 X48.778 Y61.026 E60.95274
G1 X48.818 Y60.144 E61.00925
G1 X48.938 Y59.269 E61.06577
G1 X49.254 Y58.019 E61.14829
G1 X49.543 Y57.128 E61.20824
G1 X49.853 Y56.301 E61.26476
G1 X50.237 Y55.505 E61.32132
G1 X50.929 Y54.405 E61.4045
G1 X51.48 Y53.646 E61.46452
G1 X52.031 Y52.956 E61.52103
G1 X52.642 Y52.318 E61.57757
G0 F3000 X52.883 Y52.529
G1 F1500 X53.824 Y51.747 E61.65588
G1 X54.584 Y51.194 E61.71603
G1 X55.309 Y50.716 E61.77161
G1 X56.075 Y50.306 E61.82721
G1 X57.219 Y49.85 E61.90603
G1 X58.111 Y49.56 E61.96606
G1 X58.949 Y49.329 E62.02169
G1 X59.804 Y49.177 E62.07727
G1 X61.027 Y49.097 E62.15571
G1 X161.495 Y49.06 E68.58566
G1 X162.362 Y49.1 E68.64121
G1 X162.975 Y49.176 E68.68074
G1 X163.903 Y49.323 E68.74087
G1 X164.754 Y49.499 E68.79649
G1 X165.585 Y49.751 E68.85207
G1 X166.704 Y50.232 E68.93002
G1 X167.54 Y50.657 E68.99004
G1 X168.295 Y51.086 E69.04561
G1 X169.008 Y51.582 E69.1012
G1 X169.942 Y52.402 E69.18075
G1 X170.607 Y53.068 E69.24098
G1 X171.192 Y53.71 E69.29657
G1 X171.715 Y54.404 E69.35218
G1 X172.334 Y55.444 E69.42964
G1 X172.76 Y56.278 E69.48958
G1 X173.119 Y57.069 E69.54517
G1 X173.404 Y57.89 E69.60079
G1 X173.678 Y59.103 E69.68038
G1 X173.824 Y60.03 E69.74044
G1 X173.92 Y60.894 E69.79608
G1 X173.939 Y61.502 E69.83501
G1 X173.902 Y161.973 E76.26515
G1 X173.862 Y162.841 E76.32076
G1 X173.742 Y163.702 E76.3764
G1 X173.441 Y164.883 E76.4544
G1 X173.152 Y165.774 E76.51435
G1 X172.847 Y166.587 E76.56992
G1 X172.467 Y167.368 E76.62551
G1 X171.812 Y168.407 E76.70411
G1 X171.261 Y169.166 E76.76414
G1 X170.719 Y169.845 E76.81974
G1 X170.117 Y170.471 E76.87533
G1 X169.176 Y171.253 E76.95363
G1 X168.416 Y171.806 E77.01378
G1 X167.691 Y172.284 E77.06936
G1 X166.925 Y172.694 E77.12497
G1 X165.781 Y173.15 E77.20379
G1 X164.889 Y173.44 E77.26381
G1 X164.051 Y173.671 E77.31945
G1 X163.196 Y173.823 E77.37502
G1 X161.973 Y173.903 E77.45346
G1 X61.505 Y173.94 E83.88342
G1 X60.638 Y173.9 E83.93896
G1 X60.025 Y173.824 E83.9785
G1 X59.097 Y173.677 E84.03863
G1 X58.246 Y173.501 E84.09424
G1 X57.415 Y173.249 E84.14982
G1 X56.292 Y172.766 E84.22806
G1 X55.455 Y172.34 E84.28817
G1 X54.7 Y171.911 E84.34374
G1 X53.987 Y171.414 E84.39936
G1 X53.057 Y170.597 E84.47859
G1 X52.393 Y169.932 E84.53873
G1 X51.808 Y169.29 E84.59432
G1 X51.285 Y168.596 E84.64994
G1 X50.664 Y167.552 E84.72768
G1 X50.237 Y166.715 E84.78782
G1 X49.878 Y165.924 E84.84341
G1 X49.594 Y165.103 E84.89901
G1 X49.32 Y163.888 E84.97872
G1 X49.175 Y162.964 E85.03858
G1 X49.08 Y162.101 E85.09415
G1 X49.061 Y161.498 E85.13276
G1 X49.098 Y61.027 E91.5629
G1 X49.138 Y60.159 E91.61851
G1 X49.258 Y59.298 E91.67415
G1 X49.559 Y58.117 E91.75215
G1 X49.848 Y57.226 E91.8121
G1 X50.153 Y56.413 E91.86767
G1 X50.533 Y55.632 E91.92326
G1 X51.188 Y54.593 E92.00187
G1 X51.739 Y53.834 E92.06189
G1 X52.281 Y53.155 E92.1175
G1 X52.883 Y52.529 E92.17308
G0 F3000 X53.125 Y52.741
G1 F1500 X54.012 Y52.006 E92.2468
G1 X54.772 Y51.453 E92.30696
G1 X55.485 Y50.983 E92.36161
G1 X56.239 Y50.582 E92.41627
G1 X57.318 Y50.154 E92.49056
G1 X58.21 Y49.864 E92.55059
G1 X59.034 Y49.638 E92.60527
G1 X59.875 Y49.49 E92.65992
G1 X61.027 Y49.417 E92.7338
G1 X161.495 Y49.38 E99.16375
G1 X162.348 Y49.42 E99.2184
G1 X162.925 Y49.492 E99.25562
G1 X163.853 Y49.639 E99.31575
G1 X164.689 Y49.812 E99.37039
G1 X165.505 Y50.063 E99.42503
G1 X166.559 Y50.517 E99.49847
G1 X167.395 Y50.942 E99.55849
G1 X168.137 Y51.364 E99.61313
G1 X168.837 Y51.854 E99.66781
G1 X169.716 Y52.628 E99.74277
G1 X170.381 Y53.294 E99.803
G1 X170.955 Y53.926 E99.85764
G1 X171.468 Y54.609 E99.91231
G1 X172.049 Y55.589 E99.98522
G1 X172.475 Y56.423 E100.04516
G1 X172.827 Y57.201 E100.09981
G1 X173.105 Y58.009 E100.1545
G1 X173.362 Y59.153 E100.22954
G1 X173.508 Y60.08 E100.2896
G1 X173.601 Y60.929 E100.34426
G1 X173.619 Y61.502 E100.38095
G1 X173.582 Y161.973 E106.81109
G1 X173.542 Y162.826 E106.86575
G1 X173.422 Y163.672 E106.92043
G1 X173.137 Y164.784 E106.9939
G1 X172.848 Y165.675 E107.05385
G1 X172.547 Y166.474 E107.10849
G1 X172.172 Y167.241 E107.16313
G1 X171.553 Y168.219 E107.23721
G1 X171.002 Y168.978 E107.29724
G1 X170.469 Y169.645 E107.35188
G1 X169.875 Y170.259 E107.40656
G1 X168.988 Y170.994 E107.48028
G1 X168.228 Y171.547 E107.54043
G1 X167.515 Y172.017 E107.59509
G1 X166.761 Y172.418 E107.64974
G1 X165.682 Y172.846 E107.72403
G1 X164.79 Y173.136 E107.78406
G1 X163.966 Y173.362 E107.83875
G1 X163.125 Y173.51 E107.8934
G1 X161.973 Y173.583 E107.96727
G1 X61.505 Y173.62 E114.39723
G1 X60.652 Y173.58 E114.45188
G1 X60.075 Y173.508 E114.48909
G1 X59.147 Y173.361 E114.54923
G1 X58.311 Y173.188 E114.60386
G1 X57.495 Y172.937 E114.6585
G1 X56.437 Y172.481 E114.73224
G1 X55.6 Y172.055 E114.79234
G1 X54.858 Y171.632 E114.84701
G1 X54.159 Y171.142 E114.90164
G1 X53.283 Y170.371 E114.97632
G1 X52.619 Y169.706 E115.03647
G1 X52.045 Y169.074 E115.09111
G1 X51.532 Y168.391 E115.14578
G1 X50.949 Y167.406 E115.21903
G1 X50.522 Y166.569 E115.27917
G1 X50.17 Y165.791 E115.33382
G1 X49.892 Y164.984 E115.38845
G1 X49.636 Y163.839 E115.46353
G1 X49.491 Y162.915 E115.52339
G1 X49.399 Y162.066 E115.57805
G1 X49.381 Y161.498 E115.61442
G1 X49.418 Y61.027 E122.04456
G1 X49.458 Y60.174 E122.09922
G1 X49.578 Y59.328 E122.1539
G1 X49.863 Y58.216 E122.22737
G1 X50.152 Y57.325 E122.28732
G1 X50.453 Y56.526 E122.34196
G1 X50.828 Y55.759 E122.3966
G1 X51.447 Y54.781 E122.47068
G1 X51.998 Y54.022 E122.53071
G1 X52.531 Y53.355 E122.58535
G1 X53.125 Y52.741 E122.64002
G0 F3000 X53.366 Y52.954
G1 F1500 X54.2 Y52.264 E122.7093
G1 X54.96 Y51.711 E122.76945
G1 X55.661 Y51.251 E122.82311
G1 X56.403 Y50.859 E122.87682
G1 X57.417 Y50.458 E122.94661
G1 X58.309 Y50.168 E123.00664
G1 X59.118 Y49.947 E123.06031
G1 X59.945 Y49.804 E123.11402
G1 X61.027 Y49.737 E123.1834
G1 X161.495 Y49.7 E129.61336
G1 X162.333 Y49.74 E129.66705
G1 X162.875 Y49.808 E129.70201
G1 X163.803 Y49.955 E129.76214
G1 X164.624 Y50.126 E129.81581
G1 X165.425 Y50.374 E129.86948
G1 X166.414 Y50.802 E129.93845
G1 X167.25 Y51.227 E129.99847
G1 X167.979 Y51.643 E130.05219
G1 X168.665 Y52.126 E130.10588
G1 X169.489 Y52.854 E130.17625
G1 X170.154 Y53.52 E130.23649
G1 X170.718 Y54.141 E130.29017
G1 X171.22 Y54.813 E130.34386
G1 X171.764 Y55.735 E130.41237
G1 X172.19 Y56.569 E130.47231
G1 X172.535 Y57.333 E130.52596
G1 X172.807 Y58.127 E130.57967
G1 X173.046 Y59.203 E130.65021
G1 X173.192 Y60.13 E130.71027
G1 X173.283 Y60.964 E130.76397
G1 X173.299 Y61.502 E130.79841
G1 X173.262 Y161.973 E137.22856
G1 X173.222 Y162.811 E137.28225
G1 X173.102 Y163.641 E137.33592
G1 X172.833 Y164.685 E137.40492
G1 X172.544 Y165.576 E137.46487
G1 X172.247 Y166.361 E137.51859
G1 X171.877 Y167.114 E137.57228
G1 X171.294 Y168.031 E137.64183
G1 X170.743 Y168.79 E137.70185
G1 X170.219 Y169.444 E137.75549
G1 X169.634 Y170.046 E137.80921
G1 X168.8 Y170.736 E137.87849
G1 X168.04 Y171.289 E137.93864
G1 X167.339 Y171.749 E137.9923
G1 X166.597 Y172.141 E138.04601
G1 X165.583 Y172.542 E138.11579
G1 X164.691 Y172.832 E138.17582
G1 X163.882 Y173.053 E138.2295
G1 X163.055 Y173.196 E138.28321
G1 X161.973 Y173.263 E138.35259
G1 X61.505 Y173.3 E144.78254
G1 X60.667 Y173.26 E144.83624
G1 X60.125 Y173.192 E144.8712
G1 X59.197 Y173.045 E144.93133
G1 X58.376 Y172.874 E144.985
G1 X57.575 Y172.626 E145.03866
G1 X56.582 Y172.196 E145.10792
G1 X55.745 Y171.77 E145.16803
G1 X55.017 Y171.354 E145.22169
G1 X54.331 Y170.871 E145.27538
G1 X53.51 Y170.145 E145.34552
G1 X52.846 Y169.48 E145.40567
G1 X52.282 Y168.859 E145.45936
G1 X51.78 Y168.187 E145.51304
G1 X51.234 Y167.261 E145.58184
G1 X50.807 Y166.424 E145.64198
G1 X50.462 Y165.66 E145.69563
G1 X50.191 Y164.866 E145.74932
G1 X49.952 Y163.789 E145.81993
G1 X49.807 Y162.865 E145.87978
G1 X49.717 Y162.031 E145.93347
G1 X49.701 Y161.498 E145.9676
G1 X49.738 Y61.027 E152.39774
G1 X49.778 Y60.189 E152.45144
G1 X49.898 Y59.359 E152.50511
G1 X50.167 Y58.315 E152.57411
G1 X50.456 Y57.424 E152.63405
G1 X50.753 Y56.639 E152.68777
G1 X51.123 Y55.886 E152.74147
G1 X51.706 Y54.969 E152.81101
G1 X52.257 Y54.21 E152.87104
G1 X52.781 Y53.556 E152.92467
G1 X53.366 Y52.954 E152.97839
G0 F3000 X53.606 Y53.167
G1 F1500 X54.389 Y52.523 E153.04328
G1 X55.149 Y51.97 E153.10343
G1 X55.837 Y51.519 E153.15608
G1 X56.566 Y51.136 E153.20878
G1 X57.516 Y50.762 E153.27413
G1 X58.408 Y50.472 E153.33416
G1 X59.203 Y50.256 E153.38688
G1 X60.014 Y50.118 E153.43953
G1 X61.027 Y50.057 E153.50448
G1 X161.495 Y50.02 E159.93443
G1 X162.317 Y50.06 E159.9871
G1 X162.825 Y50.124 E160.01987
G1 X163.753 Y50.271 E160.08
G1 X164.559 Y50.44 E160.13271
G1 X165.345 Y50.685 E160.1854
G1 X166.269 Y51.088 E160.24992
G1 X167.105 Y51.513 E160.30994
G1 X167.82 Y51.921 E160.36262
G1 X168.492 Y52.397 E160.41533
G1 X169.263 Y53.08 E160.48125
G1 X169.928 Y53.746 E160.54148
G1 X170.481 Y54.356 E160.59418
G1 X170.972 Y55.017 E160.64688
G1 X171.479 Y55.881 E160.71099
G1 X171.905 Y56.715 E160.77092
G1 X172.243 Y57.465 E160.82357
G1 X172.507 Y58.245 E160.87628
G1 X172.73 Y59.253 E160.94235
G1 X172.876 Y60.18 E161.00241
G1 X172.964 Y60.998 E161.05506
G1 X172.979 Y61.502 E161.08733
G1 X172.942 Y161.973 E167.51748
G1 X172.902 Y162.796 E167.57021
G1 X172.782 Y163.61 E167.62287
G1 X172.528 Y164.586 E167.68741
G1 X172.239 Y165.477 E167.74736
G1 X171.948 Y166.247 E167.80004
G1 X171.582 Y166.985 E167.85277
G1 X171.035 Y167.843 E167.91789
G1 X170.484 Y168.602 E167.97791
G1 X169.969 Y169.244 E168.03059
G1 X169.394 Y169.833 E168.08327
G1 X168.611 Y170.477 E168.14815
G1 X167.851 Y171.03 E168.20831
G1 X167.163 Y171.481 E168.26096
G1 X166.434 Y171.864 E168.31366
G1 X165.484 Y172.238 E168.379
G1 X164.592 Y172.528 E168.43903
G1 X163.797 Y172.744 E168.49175
G1 X162.986 Y172.882 E168.5444
G1 X161.973 Y172.943 E168.60935
G1 X61.505 Y172.98 E175.03931
G1 X60.683 Y172.94 E175.09198
G1 X60.175 Y172.876 E175.12475
G1 X59.247 Y172.729 E175.18488
G1 X58.441 Y172.56 E175.23758
G1 X57.655 Y172.315 E175.29028
G1 X56.728 Y171.91 E175.35502
G1 X55.891 Y171.484 E175.41513
G1 X55.176 Y171.076 E175.46781
G1 X54.504 Y170.6 E175.52052
G1 X53.736 Y169.919 E175.58621
G1 X53.072 Y169.254 E175.64635
G1 X52.519 Y168.644 E175.69905
G1 X52.028 Y167.983 E175.75174
G1 X51.519 Y167.116 E175.81609
G1 X51.092 Y166.279 E175.87622
G1 X50.754 Y165.528 E175.92893
G1 X50.49 Y164.748 E175.98163
G1 X50.269 Y163.74 E176.04768
G1 X50.124 Y162.816 E176.10754
G1 X50.036 Y161.997 E176.16026
G1 X50.021 Y161.498 E176.19221
G1 X50.058 Y61.027 E182.62235
G1 X50.098 Y60.204 E182.67508
G1 X50.218 Y59.39 E182.72774
G1 X50.472 Y58.414 E182.79229
G1 X50.761 Y57.523 E182.85224
G1 X51.052 Y56.753 E182.90492
G1 X51.418 Y56.015 E182.95764
G1 X51.965 Y55.157 E183.02276
G1 X52.516 Y54.398 E183.08279
G1 X53.031 Y53.756 E183.13546
