;FLAVOR:UltiGCode
;TIME:42283
;MATERIAL:71395
;MATERIAL2:0
;NOZZLE_DIAMETER:0.4
;Generated with Cura_SteamEngine 2.6.1

;LAYER_COUNT:30
;LAYER:0
M107
G0 F3000 X46.837 Y29.325 Z0.2
;TYPE:SKIRT
G1 F1500 X47.34 Y28.581 E0.05748
G1 X47.769 Y28.044 E0.10147
G1 X48.534 Y27.149 E0.17682
G1 X49.147 Y26.493 E0.23428
G1 X49.648 Y26.035 E0.27772
G1 X50.528 Y25.283 E0.35181
G1 X51.235 Y24.731 E0.40921
G1 X51.782 Y24.368 E0.45123
G1 X52.785 Y23.749 E0.52666
G1 X53.569 Y23.312 E0.5841
G1 X54.2 Y23.023 E0.62852
G1 X55.284 Y22.571 E0.70369
G1 X56.127 Y22.263 E0.76113
G1 X56.778 Y22.081 E0.80439
G1 X57.94 Y21.798 E0.88093
G1 X58.821 Y21.625 E0.93839
G1 X59.571 Y21.54 E0.9867
G1 X60.798 Y21.448 E1.06545
G1 X61.552 Y21.42 E1.11374
G1 X169 Y21.42 E7.99041
G1 X169.897 Y21.46 E8.04787
G1 X170.787 Y21.58 E8.10535
G1 X171.662 Y21.778 E8.16276
G1 X172.517 Y22.053 E8.22025
G1 X173.343 Y22.404 E8.27768
G1 X174.135 Y22.826 E8.33512
G1 X174.887 Y23.318 E8.39263
G1 X175.592 Y23.874 E8.4501
G1 X176.244 Y24.491 E8.50755
G1 X176.839 Y25.163 E8.56499
G1 X177.372 Y25.886 E8.62248
G1 X177.838 Y26.653 E8.67991
G1 X178.234 Y27.458 E8.73733
G1 X178.557 Y28.296 E8.79481
G1 X178.804 Y29.159 E8.85226
G1 X178.974 Y30.041 E8.90975
G1 X179.064 Y30.934 E8.96719
G1 X179.08 Y31.5 E9.00343
G1 X179.08 Y191.5 E19.24343
G1 X179.04 Y192.397 E19.30089
G1 X178.92 Y193.287 E19.35837
G1 X178.722 Y194.162 E19.41578
G1 X178.447 Y195.017 E19.47326
G1 X178.096 Y195.843 E19.5307
G1 X177.674 Y196.635 E19.58814
G1 X177.182 Y197.387 E19.64565
G1 X176.626 Y198.092 E19.70311
G1 X176.009 Y198.744 E19.76056
G1 X175.337 Y199.339 E19.81801
G1 X174.614 Y199.872 E19.87549
G1 X173.847 Y200.338 E19.93293
G1 X173.042 Y200.734 E19.99035
G1 X172.204 Y201.057 E20.04783
G1 X171.341 Y201.304 E20.10527
G1 X170.459 Y201.474 E20.16276
G1 X169.566 Y201.564 E20.2202
G1 X169 Y201.58 E20.25644
G1 X61.481 Y201.578 E27.13766
G1 X60.698 Y201.548 E27.18781
G1 X59.543 Y201.458 E27.26195
G1 X58.652 Y201.348 E27.31941
G1 X57.97 Y201.209 E27.36395
G1 X56.826 Y200.934 E27.43925
G1 X55.963 Y200.685 E27.49674
G1 X55.329 Y200.448 E27.54006
G1 X54.241 Y199.998 E27.61541
G1 X53.428 Y199.618 E27.67285
G1 X52.821 Y199.274 E27.7175
G1 X51.819 Y198.659 E27.79274
G1 X51.076 Y198.156 E27.85017
G1 X50.543 Y197.731 E27.8938
G1 X49.649 Y196.967 E27.96906
G1 X48.993 Y196.354 E28.02652
G1 X48.534 Y195.852 E28.07005
G1 X47.783 Y194.973 E28.14405
G1 X47.231 Y194.265 E28.2015
G1 X46.871 Y193.721 E28.24325
G1 X46.251 Y192.717 E28.31877
G1 X45.813 Y191.933 E28.37625
G1 X45.524 Y191.302 E28.42066
G1 X45.071 Y190.216 E28.49597
G1 X44.763 Y189.372 E28.55347
G1 X44.579 Y188.714 E28.5972
G1 X44.297 Y187.553 E28.67367
G1 X44.124 Y186.672 E28.73113
G1 X44.043 Y185.962 E28.77686
G1 X43.951 Y184.789 E28.85216
G1 X43.92 Y184.001 E28.90263
G1 X43.92 Y39.001 E38.18263
G1 X43.951 Y38.214 E38.23304
G1 X44.043 Y37.039 E38.30847
G1 X44.153 Y36.148 E38.36593
G1 X44.29 Y35.474 E38.40995
G1 X44.564 Y34.332 E38.48511
G1 X44.812 Y33.469 E38.54258
G1 X45.056 Y32.819 E38.58701
G1 X45.511 Y31.723 E38.66296
G1 X45.892 Y30.91 E38.72042
G1 X46.227 Y30.32 E38.76384
G1 X46.837 Y29.325 E38.83854
G0 F3000 X47.11 Y29.492
G1 F1500 X47.606 Y28.76 E38.89513
G1 X48.012 Y28.252 E38.93675
G1 X48.777 Y27.357 E39.0121
G1 X49.381 Y26.712 E39.06865
G1 X49.855 Y26.278 E39.10979
G1 X50.735 Y25.526 E39.18387
G1 X51.432 Y24.983 E39.24042
G1 X51.95 Y24.64 E39.28018
G1 X52.953 Y24.021 E39.35561
G1 X53.725 Y23.592 E39.41213
G1 X54.323 Y23.319 E39.4542
G1 X55.407 Y22.867 E39.52937
G1 X56.237 Y22.564 E39.58592
G1 X56.854 Y22.392 E39.62691
G1 X58.016 Y22.109 E39.70345
G1 X58.882 Y21.939 E39.75994
G1 X59.595 Y21.859 E39.80585
G1 X60.822 Y21.767 E39.8846
G1 X61.552 Y21.74 E39.93136
G1 X169 Y21.74 E46.80803
G1 X169.882 Y21.78 E46.86453
G1 X170.758 Y21.9 E46.92112
G1 X171.619 Y22.098 E46.97766
G1 X172.458 Y22.373 E47.03417
G1 X173.269 Y22.723 E47.0907
G1 X174.045 Y23.145 E47.14723
G1 X174.78 Y23.636 E47.2038
G1 X175.467 Y24.19 E47.26029
G1 X176.102 Y24.805 E47.31686
G1 X176.678 Y25.475 E47.37341
G1 X177.191 Y26.194 E47.42994
G1 X177.638 Y26.956 E47.48648
G1 X178.013 Y27.756 E47.54302
G1 X178.315 Y28.586 E47.59955
G1 X178.54 Y29.44 E47.65607
G1 X178.687 Y30.311 E47.7126
G1 X178.76 Y31.5 E47.78884
G1 X178.76 Y191.5 E58.02884
G1 X178.72 Y192.382 E58.08535
G1 X178.6 Y193.258 E58.14194
G1 X178.402 Y194.119 E58.19848
G1 X178.127 Y194.958 E58.25499
G1 X177.777 Y195.769 E58.31152
G1 X177.355 Y196.545 E58.36805
G1 X176.864 Y197.28 E58.42462
G1 X176.31 Y197.967 E58.4811
G1 X175.695 Y198.602 E58.53768
G1 X175.025 Y199.178 E58.59423
G1 X174.306 Y199.691 E58.65076
G1 X173.544 Y200.138 E58.7073
G1 X172.744 Y200.513 E58.76384
G1 X171.914 Y200.815 E58.82037
G1 X171.06 Y201.04 E58.87689
G1 X170.189 Y201.187 E58.93342
G1 X169 Y201.26 E59.00966
G1 X61.481 Y201.258 E65.89088
G1 X60.723 Y201.229 E65.93942
G1 X59.568 Y201.139 E66.01357
G1 X58.691 Y201.03 E66.07013
G1 X58.045 Y200.898 E66.11233
G1 X56.901 Y200.623 E66.18763
G1 X56.052 Y200.378 E66.24418
G1 X55.452 Y200.152 E66.28522
G1 X54.364 Y199.702 E66.36057
G1 X53.563 Y199.328 E66.41715
G1 X52.989 Y199.001 E66.45942
G1 X51.987 Y198.386 E66.53467
G1 X51.255 Y197.89 E66.59126
G1 X50.751 Y197.488 E66.63252
G1 X49.857 Y196.724 E66.70778
G1 X49.212 Y196.12 E66.76433
G1 X48.778 Y195.644 E66.80556
G1 X48.027 Y194.765 E66.87955
G1 X47.484 Y194.068 E66.9361
G1 X47.143 Y193.553 E66.97563
G1 X46.523 Y192.549 E67.05115
G1 X46.093 Y191.777 E67.10771
G1 X45.819 Y191.178 E67.14986
G1 X45.366 Y190.092 E67.22517
G1 X45.063 Y189.263 E67.28166
G1 X44.89 Y188.639 E67.3231
G1 X44.608 Y187.478 E67.39957
G1 X44.438 Y186.611 E67.45611
G1 X44.362 Y185.937 E67.49952
G1 X44.27 Y184.764 E67.57482
G1 X44.24 Y184.001 E67.62369
G1 X44.24 Y39.001 E76.90369
G1 X44.27 Y38.239 E76.9525
G1 X44.362 Y37.064 E77.02793
G1 X44.471 Y36.187 E77.08449
G1 X44.601 Y35.549 E77.12616
G1 X44.875 Y34.407 E77.20132
G1 X45.12 Y33.558 E77.25787
G1 X45.352 Y32.942 E77.3
G1 X45.807 Y31.846 E77.37595
G1 X46.182 Y31.046 E77.4325
G1 X46.5 Y30.487 E77.47366
G1 X47.11 Y29.492 E77.54835
G0 F3000 X47.383 Y29.659
G1 F1500 X47.871 Y28.94 E77.60396
G1 X48.255 Y28.459 E77.64336
G1 X49.02 Y27.564 E77.71871
G1 X49.614 Y26.931 E77.77426
G1 X50.063 Y26.521 E77.81318
G1 X50.943 Y25.769 E77.88726
G1 X51.629 Y25.236 E77.94286
G1 X52.118 Y24.913 E77.98037
G1 X53.121 Y24.294 E78.0558
G1 X53.881 Y23.872 E78.11143
G1 X54.446 Y23.614 E78.15119
G1 X55.53 Y23.162 E78.22635
G1 X56.346 Y22.865 E78.28193
G1 X56.929 Y22.703 E78.32065
G1 X58.091 Y22.42 E78.39719
G1 X58.944 Y22.254 E78.45281
G1 X59.619 Y22.178 E78.49628
G1 X60.846 Y22.086 E78.57503
G1 X61.552 Y22.06 E78.62025
G1 X169 Y22.06 E85.49692
G1 X169.868 Y22.1 E85.55253
G1 X170.728 Y22.22 E85.6081
G1 X171.574 Y22.418 E85.66371
G1 X172.398 Y22.693 E85.7193
G1 X173.194 Y23.043 E85.77496
G1 X173.953 Y23.464 E85.8305
G1 X174.671 Y23.953 E85.8861
G1 X175.341 Y24.507 E85.94174
G1 X175.957 Y25.119 E85.99731
G1 X176.514 Y25.786 E86.05293
G1 X177.008 Y26.501 E86.10855
G1 X177.433 Y27.258 E86.16411
G1 X177.788 Y28.052 E86.21977
G1 X178.067 Y28.874 E86.27533
G1 X178.27 Y29.719 E86.33095
G1 X178.395 Y30.579 E86.38657
G1 X178.44 Y31.5 E86.44558
G1 X178.44 Y191.5 E96.68558
G1 X178.4 Y192.368 E96.74119
G1 X178.28 Y193.228 E96.79677
G1 X178.082 Y194.074 E96.85237
G1 X177.807 Y194.898 E96.90797
G1 X177.457 Y195.694 E96.96362
G1 X177.036 Y196.453 E97.01917
G1 X176.547 Y197.171 E97.07476
G1 X175.993 Y197.841 E97.1304
G1 X175.381 Y198.457 E97.18598
G1 X174.714 Y199.014 E97.24159
G1 X173.999 Y199.508 E97.29721
G1 X173.242 Y199.933 E97.35277
G1 X172.448 Y200.288 E97.40844
G1 X171.626 Y200.567 E97.46399
G1 X170.781 Y200.77 E97.51961
G1 X169.921 Y200.895 E97.57523
G1 X169 Y200.94 E97.63424
G1 X61.481 Y200.938 E104.51546
G1 X60.748 Y200.909 E104.56241
G1 X59.593 Y200.819 E104.63655
G1 X58.73 Y200.712 E104.69221
G1 X58.12 Y200.587 E104.73206
G1 X56.976 Y200.312 E104.80736
G1 X56.141 Y200.07 E104.863
G1 X55.574 Y199.856 E104.90179
G1 X54.486 Y199.406 E104.97714
G1 X53.699 Y199.038 E105.03274
G1 X53.156 Y198.728 E105.07276
G1 X52.154 Y198.113 E105.148
G1 X51.435 Y197.625 E105.20362
G1 X50.959 Y197.244 E105.24264
G1 X50.065 Y196.48 E105.3179
G1 X49.431 Y195.886 E105.3735
G1 X49.021 Y195.436 E105.41246
G1 X48.27 Y194.557 E105.48646
G1 X47.736 Y193.871 E105.54209
G1 X47.415 Y193.385 E105.57937
G1 X46.795 Y192.381 E105.65489
G1 X46.373 Y191.622 E105.71047
G1 X46.115 Y191.055 E105.75034
G1 X45.662 Y189.969 E105.82565
G1 X45.364 Y189.153 E105.88124
G1 X45.201 Y188.563 E105.92042
G1 X44.919 Y187.402 E105.99688
G1 X44.753 Y186.549 E106.0525
G1 X44.681 Y185.912 E106.09353
G1 X44.589 Y184.739 E106.16883
G1 X44.56 Y184.001 E106.2161
G1 X44.56 Y39.001 E115.4961
G1 X44.589 Y38.264 E115.5433
G1 X44.681 Y37.089 E115.61873
G1 X44.788 Y36.227 E115.67432
G1 X44.913 Y35.624 E115.71374
G1 X45.187 Y34.482 E115.7889
G1 X45.428 Y33.647 E115.84452
G1 X45.647 Y33.065 E115.88432
G1 X46.102 Y31.969 E115.96027
G1 X46.472 Y31.182 E116.01592
G1 X46.773 Y30.654 E116.05482
G1 X47.383 Y29.659 E116.12951
G0 F3000 X47.656 Y29.826
G1 F1500 X48.136 Y29.12 E116.18415
G1 X48.498 Y28.667 E116.22126
G1 X49.263 Y27.772 E116.29662
G1 X49.848 Y27.15 E116.35127
G1 X50.271 Y26.765 E116.38787
G1 X51.151 Y26.013 E116.46195
G1 X51.826 Y25.489 E116.51664
G1 X52.286 Y25.185 E116.55193
G1 X53.289 Y24.566 E116.62736
G1 X54.036 Y24.152 E116.68202
G1 X54.569 Y23.909 E116.71951
G1 X55.653 Y23.457 E116.79468
G1 X56.456 Y23.166 E116.84934
G1 X57.005 Y23.014 E116.8858
G1 X58.167 Y22.731 E116.96234
G1 X59.005 Y22.568 E117.01698
G1 X59.643 Y22.498 E117.05806
G1 X60.87 Y22.406 E117.1368
G1 X61.552 Y22.38 E117.18048
G1 X169 Y22.38 E124.05716
G1 X169.853 Y22.42 E124.11181
G1 X170.699 Y22.54 E124.16649
G1 X171.529 Y22.738 E124.2211
G1 X172.338 Y23.013 E124.27579
G1 X173.117 Y23.362 E124.33042
G1 X173.86 Y23.783 E124.38508
G1 X174.56 Y24.271 E124.43969
G1 X175.212 Y24.823 E124.49436
G1 X175.809 Y25.433 E124.54899
G1 X176.347 Y26.097 E124.60368
G1 X176.82 Y26.807 E124.65828
G1 X177.225 Y27.559 E124.71295
G1 X177.557 Y28.346 E124.76761
G1 X177.815 Y29.16 E124.82226
G1 X177.995 Y29.995 E124.87693
G1 X178.096 Y30.843 E124.93159
G1 X178.12 Y31.5 E124.97366
G1 X178.12 Y191.5 E135.21366
G1 X178.08 Y192.353 E135.26831
G1 X177.96 Y193.199 E135.323
G1 X177.762 Y194.029 E135.37761
G1 X177.487 Y194.838 E135.4323
G1 X177.138 Y195.617 E135.48693
G1 X176.717 Y196.36 E135.54158
G1 X176.229 Y197.06 E135.59619
G1 X175.677 Y197.712 E135.65087
G1 X175.067 Y198.309 E135.70549
G1 X174.403 Y198.847 E135.76019
G1 X173.693 Y199.32 E135.81479
G1 X172.941 Y199.725 E135.86945
G1 X172.154 Y200.057 E135.92412
G1 X171.34 Y200.315 E135.97877
G1 X170.505 Y200.495 E136.03344
G1 X169.657 Y200.596 E136.08809
G1 X169 Y200.62 E136.13017
G1 X61.481 Y200.618 E143.01138
G1 X60.772 Y200.59 E143.0568
G1 X59.617 Y200.5 E143.13094
G1 X58.77 Y200.394 E143.18557
G1 X58.194 Y200.275 E143.22321
G1 X57.05 Y200 E143.29852
G1 X56.23 Y199.762 E143.35316
G1 X55.696 Y199.561 E143.38968
G1 X54.608 Y199.111 E143.46503
G1 X53.835 Y198.748 E143.51969
G1 X53.323 Y198.456 E143.55741
G1 X52.321 Y197.841 E143.63265
G1 X51.615 Y197.36 E143.68733
G1 X51.167 Y197.001 E143.72407
G1 X50.273 Y196.237 E143.79933
G1 X49.651 Y195.653 E143.85394
G1 X49.264 Y195.228 E143.89072
G1 X48.513 Y194.349 E143.96472
G1 X47.989 Y193.675 E144.01935
G1 X47.687 Y193.217 E144.05446
G1 X47.067 Y192.213 E144.12998
G1 X46.653 Y191.466 E144.18464
G1 X46.41 Y190.932 E144.22219
G1 X45.957 Y189.846 E144.2975
G1 X45.665 Y189.043 E144.35219
G1 X45.512 Y188.488 E144.38903
G1 X45.23 Y187.327 E144.46549
G1 X45.067 Y186.488 E144.52019
G1 X45 Y185.887 E144.5589
G1 X44.908 Y184.714 E144.6342
G1 X44.88 Y184.001 E144.67987
G1 X44.88 Y39.001 E153.95987
G1 X44.908 Y38.289 E154.00547
G1 X45 Y37.114 E154.0809
G1 X45.106 Y36.267 E154.13553
G1 X45.224 Y35.698 E154.17272
G1 X45.498 Y34.556 E154.24788
G1 X45.736 Y33.736 E154.30253
G1 X45.943 Y33.187 E154.34008
G1 X46.398 Y32.091 E154.41603
G1 X46.762 Y31.319 E154.47065
G1 X47.046 Y30.821 E154.50734
G1 X47.656 Y29.826 E154.58204
G0 F3000 X47.929 Y29.994
G1 F1500 X48.401 Y29.3 E154.63575
G1 X48.742 Y28.875 E154.67063
G1 X49.507 Y27.98 E154.74598
G1 X50.081 Y27.369 E154.79963
G1 X50.479 Y27.008 E154.83402
G1 X51.359 Y26.256 E154.9081
G1 X52.022 Y25.742 E154.96179
G1 X52.454 Y25.457 E154.99492
G1 X53.457 Y24.838 E155.07035
G1 X54.191 Y24.432 E155.12403
G1 X54.692 Y24.205 E155.15923
G1 X55.776 Y23.753 E155.2344
G1 X56.565 Y23.467 E155.28811
G1 X57.081 Y23.325 E155.32236
G1 X58.243 Y23.042 E155.3989
G1 X59.066 Y22.883 E155.45255
G1 X59.667 Y22.817 E155.49125
G1 X60.894 Y22.725 E155.56999
G1 X61.552 Y22.7 E155.61214
G1 X169 Y22.7 E162.48881
G1 X169.838 Y22.74 E162.5425
G1 X170.668 Y22.86 E162.59617
G1 X171.483 Y23.058 E162.64985
G1 X172.276 Y23.332 E162.70355
G1 X173.038 Y23.681 E162.75719
G1 X173.765 Y24.101 E162.81092
G1 X174.447 Y24.589 E162.86459
G1 X175.081 Y25.139 E162.91831
G1 X175.659 Y25.747 E162.972
G1 X176.176 Y26.407 E163.02566
G1 X176.629 Y27.113 E163.07934
G1 X177.012 Y27.859 E163.13301
G1 X177.322 Y28.639 E163.18673
G1 X177.556 Y29.444 E163.24038
G1 X177.713 Y30.268 E163.29406
G1 X177.8 Y31.5 E163.37311
G1 X177.8 Y191.5 E173.61311
G1 X177.76 Y192.338 E173.6668
G1 X177.64 Y193.168 E173.72047
G1 X177.442 Y193.983 E173.77415
G1 X177.168 Y194.776 E173.82785
G1 X176.819 Y195.538 E173.88149
G1 X176.399 Y196.265 E173.93522
G1 X175.911 Y196.947 E173.98889
G1 X175.361 Y197.581 E174.04261
G1 X174.753 Y198.159 E174.0963
G1 X174.093 Y198.676 E174.14996
G1 X173.387 Y199.129 E174.20364
G1 X172.641 Y199.512 E174.25731
G1 X171.861 Y199.822 E174.31103
G1 X171.056 Y200.056 E174.36468
G1 X170.232 Y200.213 E174.41836
G1 X169 Y200.3 E174.49741
G1 X61.481 Y200.298 E181.37863
G1 X60.797 Y200.271 E181.42244
G1 X59.642 Y200.181 E181.49658
G1 X58.81 Y200.076 E181.55025
G1 X58.269 Y199.964 E181.58561
G1 X57.125 Y199.689 E181.66091
G1 X56.32 Y199.455 E181.71456
G1 X55.819 Y199.265 E181.74885
G1 X54.731 Y198.815 E181.82421
G1 X53.972 Y198.458 E181.87789
G1 X53.491 Y198.183 E181.91335
G1 X52.489 Y197.568 E181.98859
G1 X51.796 Y197.096 E182.04225
G1 X51.375 Y196.758 E182.07681
G1 X50.481 Y195.994 E182.15207
G1 X49.87 Y195.419 E182.20577
G1 X49.507 Y195.02 E182.24029
G1 X48.756 Y194.141 E182.31428
G1 X48.243 Y193.478 E182.36793
G1 X47.96 Y193.049 E182.40082
G1 X47.34 Y192.045 E182.47635
G1 X46.933 Y191.311 E182.53006
G1 X46.705 Y190.809 E182.56535
G1 X46.252 Y189.723 E182.64065
G1 X45.967 Y188.934 E182.69434
G1 X45.823 Y188.412 E182.729
G1 X45.541 Y187.251 E182.80546
G1 X45.382 Y186.427 E182.85917
G1 X45.319 Y185.862 E182.89556
G1 X45.227 Y184.689 E182.97086
G1 X45.2 Y184.001 E183.01493
G1 X45.2 Y39.001 E192.29493
G1 X45.227 Y38.314 E192.33893
G1 X45.319 Y37.139 E192.41436
G1 X45.424 Y36.307 E192.46803
G1 X45.535 Y35.773 E192.50293
G1 X45.809 Y34.631 E192.5781
G1 X46.043 Y33.825 E192.63181
G1 X46.239 Y33.31 E192.66708
G1 X46.694 Y32.214 E192.74303
G1 X47.052 Y31.455 E192.79673
G1 X47.319 Y30.989 E192.83111
G1 X47.929 Y29.994 E192.9058
G0 F3000 X48.201 Y30.161
G1 F1500 X48.665 Y29.481 E192.95849
G1 X48.985 Y29.083 E192.99117
G1 X49.75 Y28.188 E193.06652
G1 X50.315 Y27.589 E193.11922
G1 X50.687 Y27.251 E193.15139
G1 X51.567 Y26.499 E193.22547
G1 X52.218 Y25.995 E193.27816
G1 X52.622 Y25.73 E193.30909
G1 X53.625 Y25.111 E193.38452
G1 X54.346 Y24.713 E193.43723
G1 X54.815 Y24.5 E193.47019
G1 X55.899 Y24.048 E193.54536
G1 X56.674 Y23.769 E193.59808
G1 X57.156 Y23.636 E193.63008
G1 X58.318 Y23.353 E193.70662
G1 X59.127 Y23.197 E193.75935
G1 X59.691 Y23.136 E193.79565
G1 X60.918 Y23.044 E193.8744
G1 X61.552 Y23.02 E193.91501
G1 X169 Y23.02 E200.79168
G1 X169.822 Y23.06 E200.84435
G1 X170.637 Y23.18 E200.89707
G1 X171.436 Y23.378 E200.94975
G1 X172.213 Y23.652 E201.00248
G1 X172.959 Y24.001 E201.05519
G1 X173.667 Y24.42 E201.10785
G1 X174.332 Y24.906 E201.16056
G1 X174.946 Y25.454 E201.21323
G1 X175.505 Y26.059 E201.26595
G1 X176.002 Y26.716 E201.31867
G1 X176.433 Y27.418 E201.37139
G1 X176.794 Y28.158 E201.42409
G1 X177.081 Y28.929 E201.47674
G1 X177.292 Y29.725 E201.52944
G1 X177.425 Y30.538 E201.58217
G1 X177.48 Y31.5 E201.64384
