;FLAVOR:UltiGCode
;TIME:42136
;MATERIAL:71431
;MATERIAL2:0
;NOZZLE_DIAMETER:0.4
;Generated with Cura_SteamEngine 2.6.1

;LAYER_COUNT:30
;LAYER:0
M107
G0 F3000 X45.326 Y26.365 Z0.2
;TYPE:SKIRT
G1 F1500 X45.818 Y25.613 E0.05751
G1 X46.374 Y24.908 E0.11498
G1 X46.991 Y24.256 E0.17243
G1 X47.663 Y23.661 E0.22987
G1 X48.386 Y23.128 E0.28736
G1 X49.153 Y22.662 E0.3448
G1 X49.958 Y22.266 E0.40221
G1 X50.796 Y21.943 E0.45969
G1 X51.659 Y21.696 E0.51714
G1 X52.541 Y21.526 E0.57463
G1 X53.434 Y21.436 E0.63207
G1 X54 Y21.42 E0.66831
G1 X161.499 Y21.42 E7.54824
G1 X162.286 Y21.451 E7.59865
G1 X163.461 Y21.543 E7.67408
G1 X164.352 Y21.653 E7.73154
G1 X165.03 Y21.791 E7.77582
G1 X166.174 Y22.066 E7.85112
G1 X167.037 Y22.315 E7.9086
G1 X167.669 Y22.552 E7.9518
G1 X168.755 Y23.001 E8.02701
G1 X169.569 Y23.38 E8.08448
G1 X170.173 Y23.723 E8.12893
G1 X171.176 Y24.338 E8.20423
G1 X171.92 Y24.841 E8.26171
G1 X172.456 Y25.269 E8.30561
G1 X173.351 Y26.034 E8.38096
G1 X174.007 Y26.647 E8.43842
G1 X174.463 Y27.145 E8.48164
G1 X175.23 Y28.042 E8.55717
G1 X175.783 Y28.75 E8.61467
G1 X176.163 Y29.326 E8.65883
G1 X176.771 Y30.318 E8.73329
G1 X177.206 Y31.103 E8.79073
G1 X177.484 Y31.713 E8.83363
G1 X177.94 Y32.809 E8.90961
G1 X178.247 Y33.652 E8.96703
G1 X178.434 Y34.327 E9.01185
G1 X178.709 Y35.472 E9.08722
G1 X178.88 Y36.353 E9.14465
G1 X178.957 Y37.038 E9.18877
G1 X179.049 Y38.211 E9.26407
G1 X179.08 Y38.999 E9.31454
G1 X179.08 Y183.999 E18.59454
G1 X179.049 Y184.786 E18.64495
G1 X178.957 Y185.961 E18.72038
G1 X178.847 Y186.852 E18.77784
G1 X178.71 Y187.526 E18.82186
G1 X178.436 Y188.668 E18.89702
G1 X178.188 Y189.531 E18.95448
G1 X177.949 Y190.169 E18.99809
G1 X177.499 Y191.257 E19.07344
G1 X177.119 Y192.07 E19.13088
G1 X176.777 Y192.673 E19.17524
G1 X176.162 Y193.676 E19.25054
G1 X175.659 Y194.42 E19.30802
G1 X175.231 Y194.956 E19.35192
G1 X174.466 Y195.851 E19.42727
G1 X173.853 Y196.507 E19.48473
G1 X173.354 Y196.964 E19.52804
G1 X172.458 Y197.73 E19.60348
G1 X171.75 Y198.282 E19.66094
G1 X171.181 Y198.659 E19.70462
G1 X170.179 Y199.274 E19.77986
G1 X169.394 Y199.709 E19.8373
G1 X168.759 Y199.998 E19.88195
G1 X167.671 Y200.448 E19.95731
G1 X166.827 Y200.754 E20.01476
G1 X166.174 Y200.934 E20.05811
G1 X165.03 Y201.209 E20.13341
G1 X164.149 Y201.38 E20.19085
G1 X163.461 Y201.457 E20.23516
G1 X162.286 Y201.549 E20.31059
G1 X161.499 Y201.58 E20.36099
G1 X54 Y201.58 E27.24093
G1 X53.103 Y201.54 E27.2984
G1 X52.213 Y201.42 E27.35587
G1 X51.338 Y201.222 E27.41329
G1 X50.483 Y200.947 E27.47077
G1 X49.657 Y200.596 E27.52821
G1 X48.865 Y200.174 E27.58564
G1 X48.113 Y199.682 E27.64315
G1 X47.408 Y199.126 E27.70062
G1 X46.756 Y198.509 E27.75807
G1 X46.161 Y197.837 E27.81551
G1 X45.628 Y197.114 E27.873
G1 X45.162 Y196.347 E27.93044
G1 X44.766 Y195.542 E27.98785
G1 X44.443 Y194.704 E28.04533
G1 X44.196 Y193.841 E28.10278
G1 X44.026 Y192.959 E28.16027
G1 X43.936 Y192.066 E28.21771
G1 X43.92 Y191.5 E28.25395
G1 X43.92 Y31.5 E38.49395
G1 X43.96 Y30.603 E38.55141
G1 X44.08 Y29.713 E38.60889
G1 X44.278 Y28.838 E38.6663
G1 X44.553 Y27.983 E38.72378
G1 X44.904 Y27.157 E38.78122
G1 X45.326 Y26.365 E38.83866
G0 F3000 X45.645 Y26.455
G1 F1500 X46.136 Y25.72 E38.89523
G1 X46.69 Y25.033 E38.95171
G1 X47.305 Y24.398 E39.00829
G1 X47.975 Y23.822 E39.06483
G1 X48.694 Y23.309 E39.12136
G1 X49.456 Y22.862 E39.1779
G1 X50.256 Y22.487 E39.23445
G1 X51.086 Y22.185 E39.29098
G1 X51.94 Y21.96 E39.3475
G1 X52.811 Y21.813 E39.40403
G1 X54 Y21.74 E39.48027
G1 X161.499 Y21.74 E46.3602
G1 X162.261 Y21.77 E46.40901
G1 X163.436 Y21.862 E46.48444
G1 X164.313 Y21.971 E46.541
G1 X164.955 Y22.102 E46.58293
G1 X166.099 Y22.377 E46.65824
G1 X166.948 Y22.622 E46.71479
G1 X167.547 Y22.847 E46.75574
G1 X168.633 Y23.296 E46.83095
G1 X169.433 Y23.671 E46.8875
G1 X170.006 Y23.996 E46.92966
G1 X171.009 Y24.611 E47.00496
G1 X171.74 Y25.106 E47.06146
G1 X172.248 Y25.512 E47.10308
G1 X173.143 Y26.277 E47.17843
G1 X173.788 Y26.881 E47.23498
G1 X174.22 Y27.353 E47.27593
G1 X174.987 Y28.25 E47.35147
G1 X175.53 Y28.947 E47.40801
G1 X175.89 Y29.493 E47.44987
G1 X176.498 Y30.485 E47.52433
G1 X176.925 Y31.258 E47.58085
G1 X177.188 Y31.836 E47.62149
G1 X177.644 Y32.932 E47.69747
G1 X177.946 Y33.762 E47.75399
G1 X178.123 Y34.402 E47.79649
G1 X178.398 Y35.547 E47.87185
G1 X178.565 Y36.414 E47.92836
G1 X178.638 Y37.063 E47.97016
G1 X178.73 Y38.236 E48.04546
G1 X178.76 Y38.999 E48.09433
G1 X178.76 Y183.999 E57.37433
G1 X178.73 Y184.761 E57.42314
G1 X178.638 Y185.936 E57.49857
G1 X178.529 Y186.813 E57.55513
G1 X178.399 Y187.451 E57.5968
G1 X178.125 Y188.593 E57.67196
G1 X177.88 Y189.442 E57.72851
G1 X177.653 Y190.046 E57.76981
G1 X177.203 Y191.134 E57.84516
G1 X176.829 Y191.935 E57.90174
G1 X176.504 Y192.506 E57.94379
G1 X175.889 Y193.509 E58.01909
G1 X175.394 Y194.24 E58.07559
G1 X174.988 Y194.748 E58.11721
G1 X174.223 Y195.643 E58.19256
G1 X173.619 Y196.288 E58.24911
G1 X173.146 Y196.721 E58.29016
G1 X172.25 Y197.487 E58.3656
G1 X171.553 Y198.03 E58.42215
G1 X171.013 Y198.386 E58.46354
G1 X170.011 Y199.001 E58.53878
G1 X169.238 Y199.429 E58.59533
G1 X168.636 Y199.702 E58.63764
G1 X167.548 Y200.152 E58.71299
G1 X166.718 Y200.452 E58.76947
G1 X166.099 Y200.623 E58.81057
G1 X164.955 Y200.898 E58.88588
G1 X164.088 Y201.065 E58.94238
G1 X163.436 Y201.138 E58.98437
G1 X162.261 Y201.23 E59.0598
G1 X161.499 Y201.26 E59.10861
G1 X54 Y201.26 E65.98854
G1 X53.118 Y201.22 E66.04505
G1 X52.242 Y201.1 E66.10164
G1 X51.381 Y200.902 E66.15818
G1 X50.542 Y200.627 E66.21469
G1 X49.731 Y200.277 E66.27122
G1 X48.955 Y199.855 E66.32775
G1 X48.22 Y199.364 E66.38432
G1 X47.533 Y198.81 E66.4408
G1 X46.898 Y198.195 E66.49738
G1 X46.322 Y197.525 E66.55393
G1 X45.809 Y196.806 E66.61046
G1 X45.362 Y196.044 E66.667
G1 X44.987 Y195.244 E66.72354
G1 X44.685 Y194.414 E66.78007
G1 X44.46 Y193.56 E66.83659
G1 X44.313 Y192.689 E66.89312
G1 X44.24 Y191.5 E66.96936
G1 X44.24 Y31.5 E77.20936
G1 X44.28 Y30.618 E77.26587
G1 X44.4 Y29.742 E77.32246
G1 X44.598 Y28.881 E77.379
G1 X44.873 Y28.042 E77.4355
G1 X45.223 Y27.231 E77.49204
G1 X45.645 Y26.455 E77.54857
G0 F3000 X45.964 Y26.547
G1 F1500 X46.453 Y25.829 E77.60417
G1 X47.007 Y25.159 E77.65981
G1 X47.619 Y24.543 E77.71538
G1 X48.286 Y23.986 E77.77099
G1 X49.001 Y23.492 E77.82661
G1 X49.758 Y23.067 E77.88217
G1 X50.552 Y22.712 E77.93784
G1 X51.374 Y22.433 E77.99339
G1 X52.219 Y22.23 E78.04901
G1 X53.079 Y22.105 E78.10463
G1 X54 Y22.06 E78.16365
G1 X161.499 Y22.06 E85.04358
G1 X162.236 Y22.089 E85.09079
G1 X163.411 Y22.181 E85.16622
G1 X164.273 Y22.288 E85.22181
G1 X164.88 Y22.413 E85.26147
G1 X166.024 Y22.688 E85.33677
G1 X166.859 Y22.93 E85.39241
G1 X167.425 Y23.143 E85.43112
G1 X168.511 Y23.592 E85.50633
G1 X169.298 Y23.961 E85.56196
G1 X169.838 Y24.268 E85.60171
G1 X170.841 Y24.883 E85.67701
G1 X171.56 Y25.371 E85.73262
G1 X172.041 Y25.755 E85.77201
G1 X172.936 Y26.52 E85.84737
G1 X173.569 Y27.114 E85.90292
G1 X173.977 Y27.561 E85.94165
G1 X174.744 Y28.458 E86.01719
G1 X175.277 Y29.144 E86.07279
G1 X175.618 Y29.66 E86.11237
G1 X176.226 Y30.652 E86.18683
G1 X176.645 Y31.413 E86.24243
G1 X176.893 Y31.959 E86.28081
G1 X177.349 Y33.055 E86.35679
G1 X177.645 Y33.871 E86.41234
G1 X177.812 Y34.476 E86.45251
G1 X178.087 Y35.621 E86.52787
G1 X178.251 Y36.475 E86.58353
G1 X178.319 Y37.088 E86.623
G1 X178.411 Y38.261 E86.6983
G1 X178.44 Y38.999 E86.74557
G1 X178.44 Y183.999 E96.02557
G1 X178.411 Y184.736 E96.07277
G1 X178.319 Y185.911 E96.1482
G1 X178.212 Y186.773 E96.2038
G1 X178.087 Y187.376 E96.24321
G1 X177.813 Y188.518 E96.31837
G1 X177.572 Y189.353 E96.37399
G1 X177.357 Y189.924 E96.41304
G1 X176.907 Y191.012 E96.48839
G1 X176.539 Y191.799 E96.544
G1 X176.232 Y192.338 E96.58369
G1 X175.617 Y193.341 E96.65899
G1 X175.129 Y194.06 E96.71461
G1 X174.745 Y194.541 E96.754
G1 X173.98 Y195.436 E96.82935
G1 X173.386 Y196.069 E96.88491
G1 X172.938 Y196.477 E96.92369
G1 X172.042 Y197.243 E96.99913
G1 X171.357 Y197.777 E97.05472
G1 X170.846 Y198.113 E97.09386
G1 X169.844 Y198.728 E97.1691
G1 X169.083 Y199.148 E97.22473
G1 X168.514 Y199.406 E97.26472
G1 X167.426 Y199.856 E97.34007
G1 X166.609 Y200.151 E97.39566
G1 X166.024 Y200.312 E97.43449
G1 X164.88 Y200.587 E97.50979
G1 X164.027 Y200.751 E97.56539
G1 X163.411 Y200.819 E97.60505
G1 X162.236 Y200.911 E97.68048
G1 X161.499 Y200.94 E97.72768
G1 X54 Y200.94 E104.60762
G1 X53.132 Y200.9 E104.66323
G1 X52.272 Y200.78 E104.7188
G1 X51.426 Y200.582 E104.77441
G1 X50.602 Y200.307 E104.83001
G1 X49.806 Y199.957 E104.88566
G1 X49.047 Y199.536 E104.94121
G1 X48.329 Y199.047 E104.9968
G1 X47.659 Y198.493 E105.05244
G1 X47.043 Y197.881 E105.10802
G1 X46.486 Y197.214 E105.16363
G1 X45.992 Y196.499 E105.21925
G1 X45.567 Y195.742 E105.27481
G1 X45.212 Y194.948 E105.33048
G1 X44.933 Y194.126 E105.38603
G1 X44.73 Y193.281 E105.44165
G1 X44.605 Y192.421 E105.49727
G1 X44.56 Y191.5 E105.55628
G1 X44.56 Y31.5 E115.79628
G1 X44.6 Y30.632 E115.85189
G1 X44.72 Y29.772 E115.90747
G1 X44.918 Y28.926 E115.96307
G1 X45.193 Y28.102 E116.01867
G1 X45.543 Y27.306 E116.07432
G1 X45.964 Y26.547 E116.12987
G0 F3000 X46.283 Y26.64
G1 F1500 X46.771 Y25.94 E116.18448
G1 X47.323 Y25.288 E116.23916
G1 X47.933 Y24.691 E116.29378
G1 X48.597 Y24.153 E116.34848
G1 X49.307 Y23.68 E116.40308
G1 X50.059 Y23.275 E116.45774
G1 X50.846 Y22.943 E116.51241
G1 X51.66 Y22.685 E116.56706
G1 X52.495 Y22.505 E116.62172
G1 X53.343 Y22.404 E116.67638
G1 X54 Y22.38 E116.71846
G1 X161.499 Y22.38 E123.59839
G1 X162.211 Y22.408 E123.644
G1 X163.386 Y22.5 E123.71943
G1 X164.233 Y22.606 E123.77406
G1 X164.806 Y22.725 E123.81151
G1 X165.95 Y23 E123.88681
G1 X166.77 Y23.238 E123.94146
G1 X167.303 Y23.439 E123.97792
G1 X168.389 Y23.888 E124.05313
G1 X169.162 Y24.251 E124.10778
G1 X169.671 Y24.541 E124.14527
G1 X170.674 Y25.156 E124.22057
G1 X171.381 Y25.636 E124.27526
G1 X171.833 Y25.998 E124.31232
G1 X172.728 Y26.763 E124.38768
G1 X173.35 Y27.348 E124.44233
G1 X173.734 Y27.769 E124.47879
G1 X174.501 Y28.666 E124.55433
G1 X175.024 Y29.34 E124.60893
G1 X175.345 Y29.827 E124.64626
G1 X175.953 Y30.819 E124.72072
G1 X176.364 Y31.567 E124.77534
G1 X176.597 Y32.082 E124.81152
G1 X177.053 Y33.178 E124.88749
G1 X177.344 Y33.981 E124.94215
G1 X177.501 Y34.551 E124.97999
G1 X177.776 Y35.696 E125.05536
G1 X177.936 Y36.535 E125.11002
G1 X178 Y37.113 E125.14724
G1 X178.092 Y38.286 E125.22254
G1 X178.12 Y38.999 E125.26821
G1 X178.12 Y183.999 E134.54821
G1 X178.092 Y184.711 E134.59381
G1 X178 Y185.886 E134.66924
G1 X177.894 Y186.733 E134.72387
G1 X177.776 Y187.302 E134.76106
G1 X177.502 Y188.444 E134.83623
G1 X177.264 Y189.264 E134.89087
G1 X177.062 Y189.802 E134.92765
G1 X176.612 Y190.89 E135.003
G1 X176.249 Y191.663 E135.05766
G1 X175.959 Y192.171 E135.0951
G1 X175.344 Y193.174 E135.17039
G1 X174.864 Y193.881 E135.22508
G1 X174.502 Y194.333 E135.26215
G1 X173.737 Y195.228 E135.3375
G1 X173.152 Y195.85 E135.39215
G1 X172.73 Y196.234 E135.42866
G1 X171.834 Y197 E135.50411
G1 X171.16 Y197.524 E135.55875
G1 X170.679 Y197.841 E135.59561
G1 X169.677 Y198.456 E135.67086
G1 X168.929 Y198.868 E135.72551
G1 X168.392 Y199.111 E135.76323
G1 X167.304 Y199.561 E135.83859
G1 X166.5 Y199.85 E135.89327
G1 X165.95 Y200 E135.92975
G1 X164.806 Y200.275 E136.00505
G1 X163.967 Y200.436 E136.05973
G1 X163.386 Y200.5 E136.09714
G1 X162.211 Y200.592 E136.17257
G1 X161.499 Y200.62 E136.21817
G1 X54 Y200.62 E143.09811
G1 X53.147 Y200.58 E143.15276
G1 X52.301 Y200.46 E143.20745
G1 X51.471 Y200.262 E143.26206
G1 X50.662 Y199.987 E143.31674
G1 X49.883 Y199.638 E143.37137
G1 X49.14 Y199.217 E143.42603
G1 X48.44 Y198.729 E143.48064
G1 X47.788 Y198.177 E143.53531
G1 X47.191 Y197.567 E143.58994
G1 X46.653 Y196.903 E143.64463
G1 X46.18 Y196.193 E143.69923
G1 X45.775 Y195.441 E143.7539
G1 X45.443 Y194.654 E143.80856
G1 X45.185 Y193.84 E143.86321
G1 X45.005 Y193.005 E143.91788
G1 X44.904 Y192.157 E143.97254
G1 X44.88 Y191.5 E144.01461
G1 X44.88 Y31.5 E154.25461
G1 X44.92 Y30.647 E154.30927
G1 X45.04 Y29.801 E154.36395
G1 X45.238 Y28.971 E154.41856
G1 X45.513 Y28.162 E154.47325
G1 X45.862 Y27.383 E154.52788
G1 X46.283 Y26.64 E154.58253
G0 F3000 X46.601 Y26.735
G1 F1500 X47.089 Y26.053 E154.63621
G1 X47.639 Y25.419 E154.68992
G1 X48.247 Y24.841 E154.74361
G1 X48.907 Y24.324 E154.79727
G1 X49.613 Y23.871 E154.85095
G1 X50.359 Y23.488 E154.90462
G1 X51.139 Y23.178 E154.95834
G1 X51.944 Y22.944 E155.01199
G1 X52.768 Y22.787 E155.06568
G1 X54 Y22.7 E155.14472
G1 X161.499 Y22.7 E162.02466
G1 X162.186 Y22.727 E162.06866
G1 X163.361 Y22.819 E162.14409
G1 X164.193 Y22.924 E162.19776
G1 X164.731 Y23.036 E162.23293
G1 X165.875 Y23.311 E162.30823
G1 X166.68 Y23.545 E162.36188
G1 X167.18 Y23.735 E162.39612
G1 X168.266 Y24.184 E162.47133
G1 X169.025 Y24.541 E162.52501
G1 X169.504 Y24.814 E162.56029
G1 X170.507 Y25.429 E162.63559
G1 X171.2 Y25.901 E162.68925
G1 X171.625 Y26.242 E162.72413
G1 X172.52 Y27.007 E162.79948
G1 X173.131 Y27.581 E162.85313
G1 X173.49 Y27.977 E162.88734
G1 X174.257 Y28.874 E162.96287
G1 X174.771 Y29.537 E163.01656
G1 X175.072 Y29.994 E163.05159
G1 X175.68 Y30.986 E163.12605
G1 X176.084 Y31.722 E163.17978
G1 X176.302 Y32.205 E163.2137
G1 X176.758 Y33.301 E163.28967
G1 X177.043 Y34.09 E163.34336
G1 X177.19 Y34.626 E163.37893
G1 X177.465 Y35.771 E163.4543
G1 X177.621 Y36.595 E163.50797
G1 X177.681 Y37.138 E163.54293
G1 X177.773 Y38.311 E163.61823
G1 X177.8 Y38.999 E163.6623
G1 X177.8 Y183.999 E172.9423
G1 X177.773 Y184.686 E172.9863
G1 X177.681 Y185.861 E173.06173
G1 X177.576 Y186.693 E173.1154
G1 X177.465 Y187.227 E173.15031
G1 X177.191 Y188.369 E173.22547
G1 X176.957 Y189.175 E173.27919
G1 X176.766 Y189.679 E173.31368
G1 X176.316 Y190.767 E173.38903
G1 X175.959 Y191.526 E173.44271
G1 X175.686 Y192.004 E173.47794
G1 X175.071 Y193.007 E173.55324
G1 X174.599 Y193.7 E173.6069
G1 X174.258 Y194.125 E173.64178
G1 X173.493 Y195.02 E173.71713
G1 X172.919 Y195.631 E173.77078
G1 X172.522 Y195.991 E173.80508
G1 X171.626 Y196.757 E173.88053
G1 X170.964 Y197.271 E173.93417
G1 X170.511 Y197.568 E173.96883
G1 X169.509 Y198.183 E174.04408
G1 X168.774 Y198.587 E174.09775
G1 X168.269 Y198.815 E174.13322
G1 X167.181 Y199.265 E174.20857
G1 X166.392 Y199.548 E174.26221
G1 X165.875 Y199.689 E174.29651
G1 X164.731 Y199.964 E174.37181
G1 X163.907 Y200.121 E174.4255
G1 X163.361 Y200.181 E174.46065
G1 X162.186 Y200.273 E174.53608
G1 X161.499 Y200.3 E174.58008
G1 X54 Y200.3 E181.46002
G1 X53.162 Y200.26 E181.51371
G1 X52.332 Y200.14 E181.56739
G1 X51.517 Y199.942 E181.62106
G1 X50.724 Y199.668 E181.67476
G1 X49.962 Y199.319 E181.7284
G1 X49.235 Y198.899 E181.78213
G1 X48.553 Y198.411 E181.8358
G1 X47.919 Y197.861 E181.88952
G1 X47.341 Y197.253 E181.94321
G1 X46.824 Y196.593 E181.99687
G1 X46.371 Y195.887 E182.05055
G1 X45.988 Y195.141 E182.10422
G1 X45.678 Y194.361 E182.15794
G1 X45.444 Y193.556 E182.21159
G1 X45.287 Y192.732 E182.26528
G1 X45.2 Y191.5 E182.34432
G1 X45.2 Y31.5 E192.58432
G1 X45.24 Y30.662 E192.63801
G1 X45.36 Y29.832 E192.69169
G1 X45.558 Y29.017 E192.74536
G1 X45.832 Y28.224 E192.79906
G1 X46.181 Y27.462 E192.8527
G1 X46.601 Y26.735 E192.90643
G0 F3000 X46.92 Y26.833
G1 F1500 X47.406 Y26.168 E192.95915
G1 X47.954 Y25.554 E193.01182
G1 X48.559 Y24.995 E193.06454
G1 X49.216 Y24.498 E193.11726
G1 X49.918 Y24.067 E193.16998
G1 X50.658 Y23.706 E193.22267
G1 X51.429 Y23.419 E193.27533
G1 X52.225 Y23.208 E193.32803
G1 X53.038 Y23.075 E193.38075
G1 X54 Y23.02 E193.44242
G1 X161.499 Y23.02 E200.32236
G1 X162.161 Y23.046 E200.36476
G1 X163.336 Y23.138 E200.44019
G1 X164.153 Y23.242 E200.4929
G1 X164.656 Y23.347 E200.52578
G1 X165.8 Y23.622 E200.60109
G1 X166.59 Y23.853 E200.65376
G1 X167.058 Y24.03 E200.68579
G1 X168.144 Y24.479 E200.761
G1 X168.889 Y24.831 E200.81373
G1 X169.337 Y25.087 E200.84675
G1 X170.34 Y25.702 E200.92205
G1 X171.02 Y26.166 E200.97474
G1 X171.417 Y26.485 E201.00733
G1 X172.312 Y27.25 E201.08269
G1 X172.911 Y27.815 E201.13538
G1 X173.247 Y28.185 E201.16737
G1 X174.014 Y29.082 E201.2429
G1 X174.518 Y29.733 E201.2956
G1 X174.799 Y30.162 E201.32842
G1 X175.407 Y31.154 E201.40288
G1 X175.803 Y31.876 E201.45558
