;FLAVOR:UltiGCode
;TIME:17310
;MATERIAL:27668
;MATERIAL2:0
;NOZZLE_DIAMETER:0.4
;Generated with Cura_SteamEngine 2.6.1

;LAYER_COUNT:48
;LAYER:0
M107
G0 F3000 X55.606 Y55.3 Z0.2
;TYPE:SKIRT
G1 F1500 X56.281 Y54.709 E0.05742
G1 X56.642 Y54.433 E0.0865
G1 X57.401 Y53.88 E0.1466
G1 X58.15 Y53.384 E0.2041
G1 X58.939 Y52.957 E0.26151
G1 X59.764 Y52.602 E0.31899
G1 X60.224 Y52.44 E0.35021
G1 X61.117 Y52.15 E0.4103
G1 X61.982 Y51.911 E0.46773
G1 X62.865 Y51.75 E0.52517
G1 X63.759 Y51.668 E0.58263
G1 X64.226 Y51.657 E0.61253
G1 X158.295 Y51.62 E6.63294
G1 X159.192 Y51.66 E6.69041
G1 X159.876 Y51.744 E6.73451
G1 X160.804 Y51.891 E6.79465
G1 X161.684 Y52.071 E6.85213
G1 X162.544 Y52.328 E6.90958
G1 X163.378 Y52.661 E6.96705
G1 X163.799 Y52.864 E6.99696
G1 X164.634 Y53.289 E7.05693
G1 X165.416 Y53.731 E7.11442
G1 X166.154 Y54.241 E7.17183
G1 X166.845 Y54.815 E7.22932
G1 X167.19 Y55.144 E7.25983
G1 X167.856 Y55.81 E7.32011
G1 X168.462 Y56.473 E7.3776
G1 X169.006 Y57.187 E7.43505
G1 X169.485 Y57.946 E7.49249
G1 X169.709 Y58.361 E7.52267
G1 X170.134 Y59.195 E7.58257
G1 X170.506 Y60.013 E7.64009
G1 X170.803 Y60.86 E7.69753
G1 X171.024 Y61.73 E7.75498
G1 X171.109 Y62.193 E7.78511
G1 X171.256 Y63.12 E7.84518
G1 X171.357 Y64.012 E7.90263
G1 X171.38 Y64.703 E7.94688
G1 X171.343 Y158.774 E13.96742
G1 X171.303 Y159.671 E14.02489
G1 X171.183 Y160.561 E14.08236
G1 X170.984 Y161.436 E14.13979
G1 X170.851 Y161.88 E14.16945
G1 X170.562 Y162.771 E14.2294
G1 X170.247 Y163.612 E14.28688
G1 X169.859 Y164.421 E14.3443
G1 X169.4 Y165.193 E14.40178
G1 X169.126 Y165.59 E14.43266
G1 X168.574 Y166.349 E14.49272
G1 X168.014 Y167.051 E14.55019
G1 X167.394 Y167.7 E14.60763
G1 X166.719 Y168.291 E14.66505
G1 X166.358 Y168.567 E14.69414
G1 X165.599 Y169.12 E14.75424
G1 X164.85 Y169.616 E14.81173
G1 X164.061 Y170.043 E14.86915
G1 X163.236 Y170.398 E14.92663
G1 X162.776 Y170.56 E14.95784
G1 X161.883 Y170.85 E15.01793
G1 X161.018 Y171.089 E15.07537
G1 X160.135 Y171.25 E15.13281
G1 X159.241 Y171.332 E15.19027
G1 X158.774 Y171.343 E15.22016
G1 X64.705 Y171.38 E21.24058
G1 X63.808 Y171.34 E21.29804
G1 X63.124 Y171.256 E21.34215
G1 X62.196 Y171.109 E21.40228
G1 X61.316 Y170.929 E21.45977
G1 X60.456 Y170.672 E21.51721
G1 X59.622 Y170.339 E21.57469
G1 X59.196 Y170.134 E21.60494
G1 X58.36 Y169.708 E21.66499
G1 X57.579 Y169.265 E21.72246
G1 X56.841 Y168.755 E21.77987
G1 X56.151 Y168.181 E21.83731
G1 X55.809 Y167.855 E21.86755
G1 X55.144 Y167.19 E21.92774
G1 X54.538 Y166.527 E21.98523
G1 X53.994 Y165.813 E22.04267
G1 X53.515 Y165.054 E22.10012
G1 X53.289 Y164.634 E22.13064
G1 X52.863 Y163.797 E22.19075
G1 X52.491 Y162.98 E22.2482
G1 X52.194 Y162.133 E22.30564
G1 X51.974 Y161.262 E22.36314
G1 X51.89 Y160.798 E22.39332
G1 X51.744 Y159.874 E22.45319
G1 X51.643 Y158.982 E22.51064
G1 X51.62 Y158.297 E22.5545
G1 X51.657 Y64.226 E28.57505
G1 X51.697 Y63.329 E28.63251
G1 X51.817 Y62.439 E28.68999
G1 X52.016 Y61.564 E28.74742
G1 X52.149 Y61.12 E28.77708
G1 X52.438 Y60.229 E28.83703
G1 X52.753 Y59.388 E28.89451
G1 X53.141 Y58.579 E28.95193
G1 X53.6 Y57.807 E29.00941
G1 X53.874 Y57.41 E29.04028
G1 X54.426 Y56.651 E29.10035
G1 X54.986 Y55.949 E29.15782
G1 X55.606 Y55.3 E29.21526
G0 F3000 X55.848 Y55.512
G1 F1500 X56.831 Y54.692 E29.29719
G1 X57.59 Y54.139 E29.35729
G1 X58.326 Y53.651 E29.41381
G1 X59.104 Y53.233 E29.47033
G1 X60.322 Y52.744 E29.55433
G1 X61.215 Y52.454 E29.61442
G1 X62.067 Y52.22 E29.67097
G1 X62.937 Y52.063 E29.72755
G1 X64.226 Y51.977 E29.81023
G1 X158.295 Y51.94 E35.83064
G1 X159.178 Y51.98 E35.88721
G1 X159.826 Y52.06 E35.929
G1 X160.754 Y52.207 E35.98913
G1 X161.619 Y52.385 E36.04565
G1 X162.465 Y52.64 E36.1022
G1 X163.654 Y53.149 E36.18498
G1 X164.489 Y53.574 E36.24494
G1 X165.258 Y54.01 E36.30152
G1 X165.983 Y54.513 E36.35799
G1 X166.963 Y55.371 E36.44136
G1 X167.629 Y56.037 E36.50163
G1 X168.225 Y56.689 E36.55817
G1 X168.759 Y57.392 E36.61467
G1 X169.424 Y58.507 E36.69776
G1 X169.849 Y59.341 E36.75766
G1 X170.214 Y60.145 E36.81417
G1 X170.505 Y60.979 E36.87071
G1 X170.793 Y62.243 E36.95368
G1 X170.94 Y63.17 E37.01375
G1 X171.038 Y64.048 E37.07029
G1 X171.06 Y64.703 E37.11223
G1 X171.023 Y158.774 E43.13277
G1 X170.983 Y159.656 E43.18928
G1 X170.863 Y160.532 E43.24587
G1 X170.547 Y161.781 E43.32832
G1 X170.258 Y162.672 E43.38827
G1 X169.948 Y163.499 E43.4448
G1 X169.564 Y164.295 E43.50136
G1 X168.867 Y165.402 E43.58508
G1 X168.315 Y166.161 E43.64514
G1 X167.764 Y166.851 E43.70166
G1 X167.152 Y167.488 E43.75819
G1 X166.169 Y168.308 E43.84012
G1 X165.41 Y168.861 E43.90022
G1 X164.674 Y169.349 E43.95674
G1 X163.896 Y169.767 E44.01326
G1 X162.678 Y170.256 E44.09726
G1 X161.785 Y170.546 E44.15735
G1 X160.933 Y170.78 E44.2139
G1 X160.063 Y170.937 E44.27048
G1 X158.774 Y171.023 E44.35316
G1 X64.705 Y171.06 E50.37357
G1 X63.822 Y171.02 E50.43014
G1 X63.174 Y170.94 E50.47193
G1 X62.246 Y170.793 E50.53206
G1 X61.381 Y170.615 E50.58858
G1 X60.535 Y170.36 E50.64513
G1 X59.342 Y169.849 E50.72819
G1 X58.506 Y169.423 E50.78824
G1 X57.738 Y168.987 E50.84476
G1 X57.012 Y168.483 E50.90133
G1 X56.036 Y167.628 E50.98437
G1 X55.371 Y166.963 E51.04456
G1 X54.775 Y166.311 E51.10109
G1 X54.241 Y165.608 E51.15759
G1 X53.574 Y164.489 E51.24097
G1 X53.148 Y163.652 E51.30107
G1 X52.783 Y162.847 E51.35764
G1 X52.493 Y162.013 E51.41415
G1 X52.206 Y160.748 E51.49717
G1 X52.06 Y159.824 E51.55704
G1 X51.961 Y158.946 E51.61359
G1 X51.94 Y158.297 E51.65515
G1 X51.977 Y64.226 E57.67569
G1 X52.017 Y63.344 E57.7322
G1 X52.137 Y62.468 E57.78878
G1 X52.453 Y61.219 E57.87124
G1 X52.742 Y60.328 E57.93119
G1 X53.052 Y59.501 E57.98771
G1 X53.436 Y58.705 E58.04427
G1 X54.133 Y57.598 E58.128
G1 X54.685 Y56.839 E58.18806
G1 X55.236 Y56.149 E58.24457
G1 X55.848 Y55.512 E58.30111
G0 F3000 X56.089 Y55.724
G1 F1500 X57.019 Y54.95 E58.37854
G1 X57.778 Y54.397 E58.43864
G1 X58.503 Y53.919 E58.49422
G1 X59.269 Y53.508 E58.54986
G1 X60.421 Y53.049 E58.62922
G1 X61.314 Y52.759 E58.68931
G1 X62.152 Y52.529 E58.74493
G1 X63.007 Y52.377 E58.80051
G1 X64.226 Y52.297 E58.87869
G1 X158.295 Y52.26 E64.89911
G1 X159.163 Y52.3 E64.95472
G1 X159.776 Y52.376 E64.99425
G1 X160.704 Y52.523 E65.05438
G1 X161.555 Y52.699 E65.11
G1 X162.386 Y52.951 E65.16557
G1 X163.509 Y53.434 E65.24381
G1 X164.344 Y53.859 E65.30378
G1 X165.099 Y54.288 E65.35935
G1 X165.812 Y54.785 E65.41497
G1 X166.737 Y55.597 E65.49375
G1 X167.403 Y56.263 E65.55403
G1 X167.988 Y56.905 E65.60962
G1 X168.512 Y57.598 E65.66522
G1 X169.139 Y58.652 E65.74371
G1 X169.564 Y59.486 E65.80362
G1 X169.922 Y60.277 E65.85918
G1 X170.206 Y61.098 E65.91478
G1 X170.477 Y62.294 E65.99327
G1 X170.624 Y63.221 E66.05334
G1 X170.72 Y64.084 E66.10891
G1 X170.74 Y64.703 E66.14854
G1 X170.703 Y158.774 E72.16909
G1 X170.663 Y159.642 E72.2247
G1 X170.543 Y160.502 E72.28027
G1 X170.242 Y161.683 E72.35827
G1 X169.953 Y162.574 E72.41822
G1 X169.648 Y163.387 E72.4738
G1 X169.268 Y164.168 E72.52938
G1 X168.608 Y165.213 E72.60848
G1 X168.056 Y165.972 E72.66855
G1 X167.514 Y166.651 E72.72415
G1 X166.911 Y167.276 E72.77973
G1 X165.981 Y168.05 E72.85717
G1 X165.222 Y168.603 E72.91727
G1 X164.497 Y169.081 E72.97285
G1 X163.731 Y169.492 E73.02848
G1 X162.579 Y169.951 E73.10785
G1 X161.686 Y170.241 E73.16794
G1 X160.848 Y170.471 E73.22355
G1 X159.993 Y170.623 E73.27913
G1 X158.774 Y170.703 E73.35732
G1 X64.705 Y170.74 E79.37773
G1 X63.837 Y170.7 E79.43334
G1 X63.224 Y170.624 E79.47288
G1 X62.296 Y170.477 E79.53301
G1 X61.445 Y170.301 E79.58862
G1 X60.614 Y170.049 E79.6442
G1 X59.487 Y169.564 E79.72272
G1 X58.651 Y169.138 E79.78277
G1 X57.896 Y168.708 E79.83838
G1 X57.184 Y168.211 E79.89395
G1 X56.262 Y167.402 E79.97246
G1 X55.597 Y166.737 E80.03264
G1 X55.012 Y166.095 E80.08823
G1 X54.488 Y165.402 E80.14384
G1 X53.859 Y164.344 E80.22261
G1 X53.433 Y163.507 E80.28272
G1 X53.075 Y162.715 E80.33834
G1 X52.791 Y161.894 E80.39394
G1 X52.522 Y160.698 E80.4724
G1 X52.376 Y159.774 E80.53227
G1 X52.28 Y158.911 E80.58784
G1 X52.26 Y158.297 E80.62716
G1 X52.297 Y64.226 E86.6477
G1 X52.337 Y63.358 E86.70331
G1 X52.457 Y62.498 E86.75889
G1 X52.758 Y61.317 E86.83689
G1 X53.047 Y60.426 E86.89684
G1 X53.352 Y59.613 E86.95241
G1 X53.732 Y58.832 E87.00799
G1 X54.392 Y57.787 E87.0871
G1 X54.944 Y57.028 E87.14716
G1 X55.486 Y56.349 E87.20276
G1 X56.089 Y55.724 E87.25835
G0 F3000 X56.33 Y55.936
G1 F1500 X57.208 Y55.209 E87.3313
G1 X57.967 Y54.656 E87.3914
G1 X58.679 Y54.186 E87.446
G1 X59.433 Y53.785 E87.50066
G1 X60.52 Y53.353 E87.57552
G1 X61.413 Y53.063 E87.63561
G1 X62.237 Y52.837 E87.69029
G1 X63.078 Y52.69 E87.74493
G1 X64.226 Y52.617 E87.81855
G1 X158.295 Y52.58 E93.83897
G1 X159.148 Y52.62 E93.89362
G1 X159.726 Y52.692 E93.9309
G1 X160.654 Y52.839 E93.99103
G1 X161.49 Y53.012 E94.04567
G1 X162.306 Y53.263 E94.10031
G1 X163.364 Y53.719 E94.17404
G1 X164.199 Y54.144 E94.23401
G1 X164.941 Y54.567 E94.28867
G1 X165.64 Y55.057 E94.3433
G1 X166.511 Y55.823 E94.41754
G1 X167.177 Y56.489 E94.47782
G1 X167.752 Y57.121 E94.5325
G1 X168.265 Y57.803 E94.58712
G1 X168.854 Y58.797 E94.66106
G1 X169.279 Y59.631 E94.72097
G1 X169.63 Y60.409 E94.77559
G1 X169.908 Y61.217 E94.83028
G1 X170.16 Y62.344 E94.90419
G1 X170.307 Y63.271 E94.96426
G1 X170.402 Y64.119 E95.01887
G1 X170.42 Y64.703 E95.05627
G1 X170.383 Y158.774 E101.07681
G1 X170.343 Y159.627 E101.13146
G1 X170.223 Y160.472 E101.18608
G1 X169.938 Y161.584 E101.25955
G1 X169.649 Y162.475 E101.3195
G1 X169.348 Y163.274 E101.37415
G1 X168.973 Y164.041 E101.42879
G1 X168.35 Y165.025 E101.50332
G1 X167.798 Y165.784 E101.56339
G1 X167.264 Y166.45 E101.61802
G1 X166.67 Y167.064 E101.6727
G1 X165.792 Y167.791 E101.74565
G1 X165.033 Y168.344 E101.80575
G1 X164.321 Y168.814 E101.86035
G1 X163.567 Y169.215 E101.91501
G1 X162.48 Y169.647 E101.98987
G1 X161.587 Y169.937 E102.04996
G1 X160.763 Y170.163 E102.10464
G1 X159.922 Y170.31 E102.15928
G1 X158.774 Y170.383 E102.2329
G1 X64.705 Y170.42 E108.25332
G1 X63.852 Y170.38 E108.30797
G1 X63.274 Y170.308 E108.34525
G1 X62.346 Y170.161 E108.40538
G1 X61.51 Y169.988 E108.46002
G1 X60.694 Y169.737 E108.51466
G1 X59.632 Y169.279 E108.58868
G1 X58.796 Y168.853 E108.64873
G1 X58.054 Y168.43 E108.70339
G1 X57.355 Y167.94 E108.75802
G1 X56.488 Y167.176 E108.83198
G1 X55.823 Y166.511 E108.89217
G1 X55.248 Y165.879 E108.94685
G1 X54.735 Y165.197 E109.00147
G1 X54.144 Y164.199 E109.0757
G1 X53.718 Y163.362 E109.13581
G1 X53.367 Y162.583 E109.19049
G1 X53.09 Y161.776 E109.2451
G1 X52.838 Y160.648 E109.31907
G1 X52.692 Y159.724 E109.37894
G1 X52.598 Y158.876 E109.43355
G1 X52.58 Y158.297 E109.47062
G1 X52.617 Y64.226 E115.49116
G1 X52.657 Y63.373 E115.54582
G1 X52.777 Y62.528 E115.60044
G1 X53.062 Y61.416 E115.67391
G1 X53.351 Y60.525 E115.73386
G1 X53.652 Y59.726 E115.7885
G1 X54.027 Y58.959 E115.84314
G1 X54.65 Y57.975 E115.91768
G1 X55.202 Y57.216 E115.97774
G1 X55.736 Y56.55 E116.03237
G1 X56.33 Y55.936 E116.08705
G0 F3000 X56.571 Y56.149
G1 F1500 X57.396 Y55.468 E116.15551
G1 X58.155 Y54.915 E116.21562
G1 X58.856 Y54.454 E116.26931
G1 X59.597 Y54.061 E116.32299
G1 X60.619 Y53.657 E116.39333
G1 X61.512 Y53.367 E116.45342
G1 X62.321 Y53.147 E116.50707
G1 X63.148 Y53.004 E116.56079
G1 X64.227 Y52.937 E116.62998
G1 X158.296 Y52.9 E122.65039
G1 X159.133 Y52.94 E122.70402
G1 X159.676 Y53.008 E122.73904
G1 X160.604 Y53.155 E122.79918
G1 X161.425 Y53.326 E122.85285
G1 X162.226 Y53.574 E122.90651
G1 X163.219 Y54.004 E122.97577
G1 X164.054 Y54.429 E123.03573
G1 X164.782 Y54.845 E123.08939
G1 X165.468 Y55.328 E123.14309
G1 X166.285 Y56.049 E123.21283
G1 X166.951 Y56.715 E123.27311
G1 X167.515 Y57.336 E123.32679
G1 X168.017 Y58.008 E123.38048
G1 X168.569 Y58.942 E123.44991
G1 X168.994 Y59.776 E123.50982
G1 X169.338 Y60.541 E123.5635
G1 X169.609 Y61.335 E123.6172
G1 X169.844 Y62.394 E123.68662
G1 X169.991 Y63.321 E123.74669
G1 X170.083 Y64.155 E123.80039
G1 X170.1 Y64.702 E123.83542
G1 X170.063 Y158.773 E129.85596
G1 X170.023 Y159.611 E129.90965
G1 X169.903 Y160.441 E129.96333
G1 X169.634 Y161.485 E130.03232
G1 X169.345 Y162.376 E130.09227
G1 X169.048 Y163.161 E130.14599
G1 X168.678 Y163.914 E130.19968
G1 X168.091 Y164.837 E130.26969
G1 X167.539 Y165.596 E130.32975
G1 X167.014 Y166.25 E130.38343
G1 X166.429 Y166.851 E130.4371
G1 X165.604 Y167.532 E130.50557
G1 X164.845 Y168.085 E130.56567
G1 X164.144 Y168.546 E130.61937
G1 X163.403 Y168.939 E130.67305
G1 X162.381 Y169.343 E130.74338
G1 X161.488 Y169.633 E130.80347
G1 X160.679 Y169.853 E130.85713
G1 X159.852 Y169.996 E130.91084
G1 X158.773 Y170.063 E130.98003
G1 X64.704 Y170.1 E137.00045
G1 X63.867 Y170.06 E137.05408
G1 X63.324 Y169.992 E137.0891
G1 X62.396 Y169.845 E137.14923
G1 X61.575 Y169.674 E137.2029
G1 X60.774 Y169.426 E137.25657
G1 X59.778 Y168.994 E137.32605
G1 X58.942 Y168.568 E137.3861
G1 X58.213 Y168.152 E137.43982
G1 X57.528 Y167.668 E137.4935
G1 X56.714 Y166.95 E137.56296
G1 X56.049 Y166.285 E137.62315
G1 X55.485 Y165.664 E137.67684
G1 X54.983 Y164.992 E137.73052
G1 X54.429 Y164.054 E137.80025
G1 X54.003 Y163.217 E137.86035
G1 X53.659 Y162.452 E137.91403
G1 X53.389 Y161.658 E137.96771
G1 X53.154 Y160.598 E138.0372
G1 X53.008 Y159.674 E138.09707
G1 X52.917 Y158.841 E138.15069
G1 X52.9 Y158.298 E138.18546
G1 X52.937 Y64.227 E144.20601
G1 X52.977 Y63.389 E144.2597
G1 X53.097 Y62.559 E144.31337
G1 X53.366 Y61.515 E144.38237
G1 X53.655 Y60.624 E144.44232
G1 X53.952 Y59.839 E144.49604
G1 X54.322 Y59.086 E144.54973
G1 X54.909 Y58.163 E144.61974
G1 X55.461 Y57.404 E144.6798
G1 X55.986 Y56.75 E144.73348
G1 X56.571 Y56.149 E144.78715
G0 F3000 X56.812 Y56.362
G1 F1500 X57.584 Y55.726 E144.85117
G1 X58.343 Y55.173 E144.91127
G1 X59.032 Y54.721 E144.96401
G1 X59.761 Y54.338 E145.01671
G1 X60.718 Y53.962 E145.08252
G1 X61.611 Y53.672 E145.14261
G1 X62.405 Y53.456 E145.19527
G1 X63.217 Y53.318 E145.24798
G1 X64.227 Y53.257 E145.31274
G1 X158.296 Y53.22 E151.33316
G1 X159.118 Y53.26 E151.38583
G1 X159.626 Y53.324 E151.4186
G1 X160.554 Y53.471 E151.47873
G1 X161.36 Y53.64 E151.53143
G1 X162.146 Y53.885 E151.58413
G1 X163.074 Y54.29 E151.64893
G1 X163.909 Y54.715 E151.70889
G1 X164.623 Y55.123 E151.76152
G1 X165.295 Y55.599 E151.81423
G1 X166.058 Y56.276 E151.87951
G1 X166.724 Y56.942 E151.93979
G1 X167.278 Y57.552 E151.99253
G1 X167.769 Y58.212 E152.04517
G1 X168.284 Y59.088 E152.11021
G1 X168.709 Y59.922 E152.17011
G1 X169.046 Y60.673 E152.2228
G1 X169.31 Y61.453 E152.2755
G1 X169.528 Y62.444 E152.34044
G1 X169.675 Y63.371 E152.40051
G1 X169.765 Y64.189 E152.45318
G1 X169.78 Y64.702 E152.48602
G1 X169.743 Y158.773 E158.50657
G1 X169.703 Y159.596 E158.5593
G1 X169.583 Y160.41 E158.61196
G1 X169.329 Y161.386 E158.6765
G1 X169.04 Y162.277 E158.73645
G1 X168.749 Y163.047 E158.78913
G1 X168.383 Y163.785 E158.84186
G1 X167.832 Y164.649 E158.90744
G1 X167.28 Y165.408 E158.9675
G1 X166.764 Y166.049 E159.02017
G1 X166.188 Y166.638 E159.07289
G1 X165.416 Y167.274 E159.13691
G1 X164.657 Y167.827 E159.19701
G1 X163.968 Y168.279 E159.24975
G1 X163.239 Y168.662 E159.30245
G1 X162.282 Y169.038 E159.36826
G1 X161.389 Y169.328 E159.42835
G1 X160.595 Y169.544 E159.48101
G1 X159.783 Y169.682 E159.53372
G1 X158.773 Y169.743 E159.59848
G1 X64.704 Y169.78 E165.6189
G1 X63.882 Y169.74 E165.67157
G1 X63.374 Y169.676 E165.70434
G1 X62.446 Y169.529 E165.76447
G1 X61.64 Y169.36 E165.81717
G1 X60.854 Y169.115 E165.86987
G1 X59.923 Y168.709 E165.93487
G1 X59.087 Y168.283 E165.99492
G1 X58.372 Y167.874 E166.04764
G1 X57.701 Y167.397 E166.10033
G1 X56.941 Y166.723 E166.16534
G1 X56.276 Y166.058 E166.22553
G1 X55.722 Y165.448 E166.27826
G1 X55.231 Y164.788 E166.33091
G1 X54.715 Y163.908 E166.3962
G1 X54.289 Y163.071 E166.45631
G1 X53.951 Y162.32 E166.50901
G1 X53.688 Y161.54 E166.56169
G1 X53.47 Y160.548 E166.6267
G1 X53.324 Y159.624 E166.68657
G1 X53.235 Y158.806 E166.73923
G1 X53.22 Y158.298 E166.77175
G1 X53.257 Y64.227 E172.7923
G1 X53.297 Y63.404 E172.84503
G1 X53.417 Y62.59 E172.89769
G1 X53.671 Y61.614 E172.96224
G1 X53.96 Y60.723 E173.02219
G1 X54.251 Y59.953 E173.07487
G1 X54.617 Y59.215 E173.12759
G1 X55.168 Y58.351 E173.19317
G1 X55.72 Y57.592 E173.25324
G1 X56.236 Y56.951 E173.3059
